MagmaMusen/UR3eVisualisation/Assets/Data/2_blocks_pt.csv
timestamp actual_q_0 actual_q_1 actual_q_2 actual_q_3 actual_q_4 actual_q_5 actual_qd_0 actual_qd_1 actual_qd_2 actual_qd_3 actual_qd_4 actual_qd_5 safety_status output_bit_register_65 output_bit_register_66

12581.332 3.712036609649658 -0.825466052894928 0.8429635206805628 -1.5883013210692347 -1.570813004170553 2.141284227371216 0.0 0.0 0.0 -0.0 0.0 0.0 1 False False

12581.382 3.7120742797851562 -0.8255231541446229 0.8429392019854944 -1.5882374248900355 -1.5708006064044397 2.1413204669952393 0.0 0.0 0.0 -0.0 0.0 0.0 1 False False

12581.431999999999 3.712062358856201 -0.8255157631686707 0.8430007139789026 -1.588313718835348 -1.5707686583148401 2.141329526901245 0.0 0.0 0.0 -0.0 0.0 0.0 1 False False

12581.482 3.712062358856201 -0.8255112332156678 0.8429716269122522 -1.5882569752135218 -1.5707810560809534 2.141267776489258 0.0 0.0 0.0 -0.0 0.0 0.0 1 False False

12581.532 3.7120532989501953 -0.8255202931216736 0.8430007139789026 -1.588297029534811 -1.5708168188678187 2.1413040161132812 0.0 0.0 0.0 -0.0 0.0 0.0 1 False False

12581.582 3.712066888809204 -0.8255320352366944 0.8429678122149866 -1.5883170566954554 -1.5707886854754847 2.141287088394165 0.0 0.0 0.0 -0.0 0.0 0.0 1 False False

12581.632 3.7120368480682373 -0.8254905504039307 0.8429802099810999 -1.5882765255370082 -1.5708048979388636 2.141258955001831 0.0 0.0 0.0 -0.0 0.0 0.0 1 False False

12581.681999999999 3.7120323181152344 -0.8255247634700318 0.8429763952838343 -1.5882650814452113 -1.5707767645465296 2.141279697418213 0.0 0.0 0.0 -0.0 0.0 0.0 1 False False

12581.732 3.7120907306671143 -0.8255319756320496 0.8429930845843714 -1.5882650814452113 -1.5707810560809534 2.1412439346313477 0.0 0.0 0.0 -0.0 0.0 0.0 1 False False

12581.782 3.7120862007141113 -0.8255143326571961 0.8429845015155237 -1.5883051357665003 -1.570756737385885 2.1412558555603027 0.0 0.0 0.0 -0.0 0.0 0.0 1 False False

12581.832 3.7121236324310303 -0.8255083721927186 0.8430126349078577 -1.5883127651610316 -1.5707929770099085 2.1413049697875977 0.0 0.0 0.0 -0.0 0.0 0.0 1 False False

12581.882 3.7120816707611084 -0.8254706424525757 0.8429353872882288 -1.5883332691588343 -1.5708087126361292 2.14131760597229 0.0 0.0 0.0 -0.0 0.0 0.0 1 False False

12581.931999999999 3.7120816707611084 -0.8254839938930054 0.8429806868182581 -1.5882731876769007 -1.5707610289203089 2.141284227371216 0.0 0.0 0.0 -0.0 0.0 0.0 1 False False

12581.982 3.712127923965454 -0.825527624492981 0.8430050055133265 -1.5882765255370082 -1.570824925099508 2.1412453651428223 0.0 0.0 0.0 -0.0 0.0 0.0 1 False False

12582.032 3.7121222019195557 -0.825464741592743 0.8429678122149866 -1.5883575878539027 -1.5707929770099085 2.14127516746521 0.0 0.0 0.0 -0.0 0.0 0.0 1 False False

12582.082 3.7120490074157715 -0.8255455058864136 0.8429477850543421 -1.588252683679098 -1.5707610289203089 2.141263246536255 0.0 0.0 0.0 -0.0 0.0 0.0 1 False False

12582.132 3.7120490074157715 -0.8255202931216736 0.8429973761187952 -1.5883094273009242 -1.570732895527975 2.141249656677246 0.0 0.0 0.0 -0.0 0.0 0.0 1 False False

12582.181999999999 3.7120773792266846 -0.8255039614490052 0.8429887930499476 -1.5882889233031214 -1.5707929770099085 2.1413004398345947 0.0 0.0 0.0 -0.0 0.0 0.0 1 False False

12582.232 3.7120697498321533 -0.8255320948413392 0.8429887930499476 -1.5882731876769007 -1.570829216633932 2.141205072402954 0.0 0.0 0.0 -0.0 0.0 0.0 1 False False

12582.282 3.7120535373687744 -0.8254616421512146 0.8429845015155237 -1.5882612667479457 -1.5708211104022425 2.141237735748291 0.0 0.0 0.0 -0.0 0.0 0.0 1 False False

12582.332 3.7120654582977295 -0.825495795612671 0.8430007139789026 -1.5882817707457484 -1.5708168188678187 2.14131760597229 0.0 0.0 0.0 -0.0 0.0 0.0 1 False False

12582.382 3.7120862007141113 -0.8254616421512146 0.8430054823504847 -1.5882331333556117 -1.5707891623126429 2.141313076019287 0.0 0.0 0.0 -0.0 0.0 0.0 1 False False

12582.431999999999 3.7120847702026367 -0.8254528206637879 0.8429673353778284 -1.5882846317686976 -1.5708172957049769 2.141345977783203 0.0 0.0 0.0 -0.0 0.0 0.0 1 False False

12582.482 3.7121024131774902 -0.8255497378161927 0.8429845015155237 -1.5882774792113246 -1.5707767645465296 2.141279697418213 0.0 0.0 0.0 -0.0 0.0 0.0 1 False False

12582.532 3.7120535373687744 -0.8255156439593812 0.8429678122149866 -1.5882612667479457 -1.5707891623126429 2.141279697418213 0.0 0.0 0.0 -0.0 0.0 0.0 1 False False

12582.632 3.7120862007141113 -0.8255202931216736 0.8429845015155237 -1.5883127651610316 -1.5707967917071741 2.1413004398345947 0.0 0.0 0.0 -0.0 0.0 0.0 1 False False

12582.681999999999 3.7121024131774902 -0.8254913848689576 0.8429606596576136 -1.588297029534811 -1.5707843939410608 2.141287088394165 0.0 0.0 0.0 -0.0 0.0 0.0 1 False False

12582.732 3.7121100425720215 -0.8255246442607422 0.8429845015155237 -1.5882731876769007 -1.5707925001727503 2.14127516746521 0.0 0.0 0.0 -0.0 0.0 0.0 1 False False

12582.782 3.712090492248535 -0.8254993718913575 0.8429721037494105 -1.588280817071432 -1.5708654562579554 2.141284227371216 0.0 0.0 0.0 -0.0 0.0 0.0 1 False False

12582.832 3.7120282649993896 -0.8255068820765992 0.8429649511920374 -1.5882889233031214 -1.570813004170553 2.1413040161132812 0.0 0.0 0.0 -0.0 0.0 0.0 1 False False

12582.882 3.7120327949523926 -0.8255083721927186 0.8429349104510706 -1.5883094273009242 -1.5707562605487269 2.141270637512207 0.0 0.0 0.0 -0.0 0.0 0.0 1 False False

12582.931999999999 3.7121024131774902 -0.8254543107799073 0.8429673353778284 -1.5882731876769007 -1.5708211104022425 2.141313076019287 0.0 0.0 0.0 -0.0 0.0 0.0 1 False False

12582.982 3.7120537757873535 -0.8255276840976258 0.8429721037494105 -1.588280817071432 -1.570801083241598 2.1413414478302 0.0 0.0 0.0 -0.0 0.0 0.0 1 False False

12583.032 3.7120416164398193 -0.8254706424525757 0.8429673353778284 -1.5883094273009242 -1.5707362333880823 2.14127516746521 0.0 0.0 0.0 -0.0 0.0 0.0 1 False False

12583.082 3.712094783782959 -0.8254823845675965 0.8430216948138636 -1.5883056126036585 -1.5707643667804163 2.141261577606201 0.0 0.0 0.0 -0.0 0.0 0.0 1 False False

12583.132 3.712090492248535 -0.8254837554744263 0.8429649511920374 -1.5882607899107875 -1.570801083241598 2.141324996948242 0.0 0.0 0.0 -0.0 0.0 0.0 1 False False

12583.181999999999 3.7120938301086426 -0.8254649204066773 0.8429258505450647 -1.5882650814452113 -1.5707486311541956 2.14127516746521 0.0 0.0 0.0 -0.0 0.0 0.0 1 False False

12583.232 3.7120862007141113 -0.8255409163287659 0.8429845015155237 -1.5883251629271449 -1.5708168188678187 2.141296148300171 0.0 0.0 0.0 -0.0 0.0 0.0 1 False False

12583.282 3.7120742797851562 -0.825463132267334 0.8429673353778284 -1.5882650814452113 -1.5707324186908167 2.141249895095825 0.0 0.0 0.0 -0.0 0.0 0.0 1 False False

12583.382 3.7120981216430664 -0.8254617017558594 0.8429721037494105 -1.5882774792113246 -1.5708168188678187 2.141300678253174 0.0 0.0 0.0 -0.0 0.0 0.0 1 False False

12583.431999999999 3.7120699882507324 -0.8255365651896973 0.8429964224444788 -1.5882731876769007 -1.5707967917071741 2.141322135925293 0.0 0.0 0.0 -0.0 0.0 0.0 1 False False

12583.482 3.7120537757873535 -0.8255289953998108 0.8429802099810999 -1.5882932148375453 -1.5707767645465296 2.1413414478302 0.0 0.0 0.0 -0.0 0.0 0.0 1 False False

12583.532 3.7120819091796875 -0.825487033729889 0.8429515997516077 -1.5882612667479457 -1.570829216633932 2.1413204669952393 0.0 0.0 0.0 -0.0 0.0 0.0 1 False False

12583.582 3.712062358856201 -0.825463132267334 0.8429964224444788 -1.5882374248900355 -1.5708449522601526 2.1413087844848633 0.0 0.0 0.0 -0.0 0.0 0.0 1 False False

12583.632 3.712106704711914 -0.8254497212222596 0.8429515997516077 -1.588273664514059 -1.570813004170553 2.141279697418213 0.0 0.0 0.0 -0.0 0.0 0.0 1 False False

12583.681999999999 3.7121024131774902 -0.8254780930331727 0.8429515997516077 -1.588269372979635 -1.570801083241598 2.141266107559204 0.0 0.0 0.0 -0.0 0.0 0.0 1 False False

12583.732 3.712066650390625 -0.8254824441722413 0.8429606596576136 -1.5882932148375453 -1.5707967917071741 2.141313076019287 0.0 0.0 0.0 -0.0 0.0 0.0 1 False False

12583.782 3.712062358856201 -0.825454370384552 0.8429515997516077 -1.588313718835348 -1.5708373228656214 2.141296148300171 0.0 0.0 0.0 -0.0 0.0 0.0 1 False False

12583.832 3.712099313735962 -0.8254661124995728 0.8429935614215296 -1.5882612667479457 -1.5707805792437952 2.141254186630249 0.0 0.0 0.0 -0.0 0.0 0.0 1 False False

12583.882 3.7120819091796875 -0.8254661124995728 0.8429802099810999 -1.5882612667479457 -1.5707686583148401 2.141279697418213 0.0 0.0 0.0 -0.0 0.0 0.0 1 False False

12583.931999999999 3.7120580673217773 -0.8254993718913575 0.8429606596576136 -1.5882774792113246 -1.570813004170553 2.141284227371216 0.0 0.0 0.0 -0.0 0.0 0.0 1 False False

12583.982 3.7120494842529297 -0.8255039018443604 0.8430007139789026 -1.5882932148375453 -1.5707724730121058 2.141334056854248 0.0 0.0 0.0 -0.0 0.0 0.0 1 False False

12584.032 3.71207332611084 -0.8255112928203125 0.8429806868182581 -1.5882288418211878 -1.570801083241598 2.141313076019287 0.0 0.0 0.0 -0.0 0.0 0.0 1 False False

12584.082 3.7120981216430664 -0.8254454296878357 0.8430054823504847 -1.588341852227682 -1.5708168188678187 2.141258955001831 0.0 0.0 0.0 -0.0 0.0 0.0 1 False False

12584.132 3.7120862007141113 -0.8254707020572205 0.8429802099810999 -1.5883056126036585 -1.5707724730121058 2.141267776489258 0.0 0.0 0.0 -0.0 0.0 0.0 1 False False

12584.181999999999 3.7120652198791504 -0.8255201739123841 0.8429515997516077 -1.5883013210692347 -1.5707891623126429 2.141291618347168 0.0 0.0 0.0 -0.0 0.0 0.0 1 False False

12584.232 3.7121236324310303 -0.8254824441722413 0.8429845015155237 -1.5882846317686976 -1.570801083241598 2.141291618347168 0.0 0.0 0.0 -0.0 0.0 0.0 1 False False

12584.282 3.712050199508667 -0.8254411381534119 0.8429845015155237 -1.588292738000387 -1.5707324186908167 2.1413040161132812 0.0 0.0 0.0 -0.0 0.0 0.0 1 False False

12584.332 3.7120890617370605 -0.8254736822894593 0.8429678122149866 -1.5882336101927699 -1.5708168188678187 2.141242504119873 0.0 0.0 0.0 -0.0 0.0 0.0 1 False False

12584.382 3.712106943130493 -0.825433687572815 0.8429935614215296 -1.5882851086058558 -1.570813004170553 2.141258955001831 0.0 0.0 0.0 -0.0 0.0 0.0 1 False False

12584.431999999999 3.7121026515960693 -0.8254292768291016 0.8429349104510706 -1.5882655582823695 -1.570829216633932 2.141313076019287 0.0 0.0 0.0 -0.0 0.0 0.0 1 False False

12584.482 3.7120907306671143 -0.8255319160274048 0.8429306189166468 -1.5882488689818324 -1.570784870778219 2.1413049697875977 0.0 0.0 0.0 -0.0 0.0 0.0 1 False False

12584.532 3.7120816707611084 -0.8255156439593812 0.8429721037494105 -1.5883127651610316 -1.570824925099508 2.14127516746521 0.0 0.0 0.0 -0.0 0.0 0.0 1 False False

12584.582 3.7120935916900635 -0.8254587215236207 0.8429721037494105 -1.5883013210692347 -1.5707767645465296 2.141284227371216 0.0 0.0 0.0 -0.0 0.0 0.0 1 False False

12584.632 3.7120935916900635 -0.8254836958697815 0.8430007139789026 -1.5883013210692347 -1.5708044211017054 2.141267776489258 0.0 0.0 0.0 -0.0 0.0 0.0 1 False False

12584.681999999999 3.7120580673217773 -0.8254587811282654 0.8429520765887659 -1.5883165798582972 -1.5708449522601526 2.1412723064422607 0.0 0.0 0.0 -0.0 0.0 0.0 1 False False

12584.782 3.7120580673217773 -0.8254750531962891 0.8429763952838343 -1.5882374248900355 -1.570796314870016 2.141313076019287 0.0 0.0 0.0 -0.0 0.0 0.0 1 False False

12584.832 3.7120890617370605 -0.8254780930331727 0.8429964224444788 -1.5883246860899867 -1.570829216633932 2.141313076019287 0.0 0.0 0.0 -0.0 0.0 0.0 1 False False

12584.882 3.7121236324310303 -0.8254382175258179 0.8430541197406214 -1.5883413753905238 -1.5707772413836878 2.14127516746521 0.0 0.0 0.0 -0.0 0.0 0.0 1 False False

12584.931999999999 3.7120981216430664 -0.8255201739123841 0.8429396788226526 -1.588273664514059 -1.5707886854754847 2.141258955001831 0.0 0.0 0.0 -0.0 0.0 0.0 1 False False

12584.982 3.712036609649658 -0.8254499000361939 0.8429930845843714 -1.5882774792113246 -1.570857350026266 2.141279697418213 0.0 0.0 0.0 -0.0 0.0 0.0 1 False False

12585.032 3.7120907306671143 -0.8254999083331604 0.8429721037494105 -1.5883332691588343 -1.57074481645693 2.141270637512207 0.0 0.0 0.0 -0.0 0.0 0.0 1 False False

12585.082 3.7120981216430664 -0.8254674834064026 0.8430092970477503 -1.5883246860899867 -1.570801083241598 2.141258955001831 0.0 0.0 0.0 -0.0 0.0 0.0 1 False False

12585.132 3.7120726108551025 -0.8255211275867005 0.8429635206805628 -1.5882612667479457 -1.5707967917071741 2.141254186630249 0.0 0.0 0.0 -0.0 0.0 0.0 1 False False

12585.181999999999 3.7121071815490723 -0.8254781526378174 0.8430092970477503 -1.5882889233031214 -1.570784870778219 2.1412723064422607 0.0 0.0 0.0 -0.0 0.0 0.0 1 False False

12585.232 3.7120697498321533 -0.8254349392703553 0.8429802099810999 -1.5883246860899867 -1.5707967917071741 2.141313076019287 0.0 0.0 0.0 -0.0 0.0 0.0 1 False False

12585.282 3.712116003036499 -0.8254662317088624 0.8430212179767054 -1.5882650814452113 -1.570801083241598 2.1413159370422363 0.0 0.0 0.0 -0.0 0.0 0.0 1 False False

12585.332 3.7120697498321533 -0.825487033729889 0.8429802099810999 -1.5883056126036585 -1.5708373228656214 2.141321897506714 0.0 0.0 0.0 -0.0 0.0 0.0 1 False False

12585.382 3.712062358856201 -0.825491265659668 0.8429520765887659 -1.588365217248434 -1.5708254019366663 2.141317367553711 0.0 0.0 0.0 -0.0 0.0 0.0 1 False False

12585.431999999999 3.712062358856201 -0.8255318564227601 0.842992130910055 -1.588252683679098 -1.5707605520831507 2.141296148300171 0.0 0.0 0.0 -0.0 0.0 0.0 1 False False

12585.482 3.7120862007141113 -0.8255112928203125 0.8429520765887659 -1.5882650814452113 -1.5707967917071741 2.141287088394165 0.0 0.0 0.0 -0.0 0.0 0.0 1 False False

12585.532 3.712062358856201 -0.8254738014987488 0.8429845015155237 -1.5882731876769007 -1.570784870778219 2.141235113143921 0.0 0.0 0.0 -0.0 0.0 0.0 1 False False

12585.582 3.7121312618255615 -0.8255286377719422 0.842994515095846 -1.588280817071432 -1.5707767645465296 2.141242504119873 0.0 0.0 0.0 -0.0 0.0 0.0 1 False False

12585.632 3.7120862007141113 -0.8255244058421631 0.8429515997516077 -1.5882932148375453 -1.570784870778219 2.1412084102630615 0.0 0.0 0.0 -0.0 0.0 0.0 1 False False

12585.681999999999 3.7120323181152344 -0.8254618805697937 0.8429845015155237 -1.5882402859129847 -1.5708335081683558 2.141287088394165 0.0 0.0 0.0 -0.0 0.0 0.0 1 False False

12585.732 3.7120606899261475 -0.8254956167987366 0.8429845015155237 -1.5883127651610316 -1.570801083241598 2.141270637512207 0.0 0.0 0.0 -0.0 0.0 0.0 1 False False

12585.782 3.7120742797851562 -0.8255038422397156 0.8429563681231897 -1.5883251629271449 -1.5707605520831507 2.141308546066284 0.0 0.0 0.0 -0.0 0.0 0.0 1 False False

12585.832 3.7121026515960693 -0.8254587811282654 0.8430054823504847 -1.5882731876769007 -1.5708048979388636 2.1412291526794434 0.0 0.0 0.0 -0.0 0.0 0.0 1 False False

12585.882 3.712036609649658 -0.8255330485156556 0.8429935614215296 -1.588273664514059 -1.5707967917071741 2.141279697418213 0.0 0.0 0.0 -0.0 0.0 0.0 1 False False

12585.931999999999 3.7120771408081055 -0.8254781526378174 0.8429606596576136 -1.5882851086058558 -1.5707772413836878 2.141270637512207 0.0 0.0 0.0 -0.0 0.0 0.0 1 False False

12585.982 3.7120490074157715 -0.8254588407329102 0.8429721037494105 -1.5883094273009242 -1.5707967917071741 2.1412723064422607 0.0 0.0 0.0 -0.0 0.0 0.0 1 False False

12586.032 3.7120742797851562 -0.8254869741252442 0.8429892698871058 -1.5883094273009242 -1.570784870778219 2.141242504119873 0.0 0.0 0.0 -0.0 0.0 0.0 1 False False

12586.082 3.712106943130493 -0.8255038422397156 0.8430097738849085 -1.5883094273009242 -1.570784870778219 2.1412394046783447 0.0 0.0 0.0 -0.0 0.0 0.0 1 False False

12586.132 3.712123394012451 -0.8255201143077393 0.8429234663592737 -1.588313718835348 -1.570813004170553 2.1412558555603027 0.0 0.0 0.0 -0.0 0.0 0.0 1 False False

12586.232 3.7120816707611084 -0.8254782122424622 0.842992130910055 -1.588280817071432 -1.5708335081683558 2.141362190246582 0.0 0.0 0.0 -0.0 0.0 0.0 1 False False

12586.282 3.7120773792266846 -0.8254588407329102 0.8429763952838343 -1.5883013210692347 -1.5707967917071741 2.141270637512207 0.0 0.0 0.0 -0.0 0.0 0.0 1 False False

12586.332 3.7120862007141113 -0.8254999083331604 0.8429892698871058 -1.5883127651610316 -1.5707724730121058 2.141266107559204 0.0 0.0 0.0 -0.0 0.0 0.0 1 False False

12586.382 3.7121100425720215 -0.8254545491984864 0.8429515997516077 -1.588280817071432 -1.5707772413836878 2.1412885189056396 0.0 0.0 0.0 -0.0 0.0 0.0 1 False False

12586.431999999999 3.7120413780212402 -0.8254619401744385 0.8429439703570765 -1.5882731876769007 -1.570801083241598 2.141270637512207 0.0 0.0 0.0 -0.0 0.0 0.0 1 False False

12586.482 3.712123394012451 -0.8254662913135071 0.8429630438434046 -1.5882817707457484 -1.570756737385885 2.141242504119873 0.0 0.0 0.0 -0.0 0.0 0.0 1 False False

12586.532 3.712127685546875 -0.8255081337741395 0.8429854551898401 -1.5882817707457484 -1.5707648436175745 2.14127516746521 0.0 0.0 0.0 -0.0 0.0 0.0 1 False False

12586.582 3.7121024131774902 -0.8254825633815308 0.8430126349078577 -1.5883127651610316 -1.570801083241598 2.141258955001831 0.0 0.0 0.0 -0.0 0.0 0.0 1 False False

12586.632 3.712123394012451 -0.8255275052836915 0.8429606596576136 -1.5882650814452113 -1.5708211104022425 2.141279697418213 0.0 0.0 0.0 -0.0 0.0 0.0 1 False False

12586.681999999999 3.712111234664917 -0.8254749935916443 0.8429473082171839 -1.588252683679098 -1.5708048979388636 2.141279697418213 0.0 0.0 0.0 -0.0 0.0 0.0 1 False False

12586.732 3.7121024131774902 -0.8254824441722413 0.8429845015155237 -1.5882650814452113 -1.5708048979388636 2.141284227371216 0.0 0.0 0.0 -0.0 0.0 0.0 1 False False

12586.782 3.7121143341064453 -0.8254545491984864 0.8430007139789026 -1.5882650814452113 -1.570772949849264 2.14132022857666 0.0 0.0 0.0 -0.0 0.0 0.0 1 False False

12586.832 3.7120773792266846 -0.8254782122424622 0.8430216948138636 -1.588320871392721 -1.5707886854754847 2.141270637512207 0.0 0.0 0.0 -0.0 0.0 0.0 1 False False

12586.882 3.712090492248535 -0.8255037826350708 0.8429539839373987 -1.5882774792113246 -1.5707929770099085 2.141279697418213 0.0 0.0 0.0 -0.0 0.0 0.0 1 False False

12586.931999999999 3.7120819091796875 -0.825482503776886 0.8429811636554163 -1.5882569752135218 -1.5708335081683558 2.1413004398345947 0.0 0.0 0.0 -0.0 0.0 0.0 1 False False

12586.982 3.712090492248535 -0.825478271847107 0.8429892698871058 -1.5882731876769007 -1.5707405249225062 2.1412839889526367 0.0 0.0 0.0 -0.0 0.0 0.0 1 False False

12587.032 3.7120862007141113 -0.8255242866328736 0.8430174032794397 -1.5883413753905238 -1.570813004170553 2.1413004398345947 0.0 0.0 0.0 -0.0 0.0 0.0 1 False False

12587.082 3.712111234664917 -0.8255038422397156 0.8429845015155237 -1.5882569752135218 -1.5707967917071741 2.141282558441162 0.0 0.0 0.0 -0.0 0.0 0.0 1 False False

12587.132 3.7120819091796875 -0.8255112928203125 0.8429306189166468 -1.5882774792113246 -1.5707882086383265 2.141313076019287 0.0 0.0 0.0 -0.0 0.0 0.0 1 False False

12587.181999999999 3.7120819091796875 -0.825491265659668 0.8429234663592737 -1.5882889233031214 -1.570801083241598 2.141254425048828 0.0 0.0 0.0 -0.0 0.0 0.0 1 False False

12587.232 3.712110996246338 -0.8255038422397156 0.8429935614215296 -1.588269372979635 -1.5708206335650843 2.141275405883789 0.0 0.0 0.0 -0.0 0.0 0.0 1 False False

12587.282 3.7121188640594482 -0.8255155247500916 0.8429845015155237 -1.588353773156637 -1.5707767645465296 2.141308546066284 0.0 0.0 0.0 -0.0 0.0 0.0 1 False False

12587.332 3.7120862007141113 -0.8254994314960022 0.8429563681231897 -1.5882846317686976 -1.5707925001727503 2.141218900680542 0.0 0.0 0.0 -0.0 0.0 0.0 1 False False

12587.382 3.71207857131958 -0.8254415553859253 0.8429964224444788 -1.5883294544615687 -1.5707648436175745 2.141275405883789 0.0 0.0 0.0 -0.0 0.0 0.0 1 False False

12587.431999999999 3.7120862007141113 -0.8255275648883362 0.8429392019854944 -1.5882846317686976 -1.5707491079913538 2.1413071155548096 0.0 0.0 0.0 -0.0 0.0 0.0 1 False False

12587.482 3.712062358856201 -0.8255232137492676 0.8429721037494105 -1.588297029534811 -1.5707491079913538 2.141270637512207 0.0 0.0 0.0 -0.0 0.0 0.0 1 False False

12587.532 3.712094783782959 -0.8254619997790833 0.8429845015155237 -1.5882731876769007 -1.5708006064044397 2.1413040161132812 0.0 0.0 0.0 -0.0 0.0 0.0 1 False False

12587.632 3.7120537757873535 -0.8255242866328736 0.8429678122149866 -1.5882846317686976 -1.5707648436175745 2.1412456035614014 0.0 0.0 0.0 -0.0 0.0 0.0 1 False False

12587.681999999999 3.7120370864868164 -0.8254954975894471 0.8429978529559534 -1.5882774792113246 -1.5707925001727503 2.14132022857666 0.0 0.0 0.0 -0.0 0.0 0.0 1 False False

12587.732 3.7120370864868164 -0.8254825633815308 0.8429964224444788 -1.5883251629271449 -1.5707886854754847 2.141251564025879 0.0 0.0 0.0 -0.0 0.0 0.0 1 False False

12587.782 3.7120871543884277 -0.8254908484271546 0.8429678122149866 -1.5882569752135218 -1.5707767645465296 2.141295909881592 0.0 0.0 0.0 -0.0 0.0 0.0 1 False False

12587.832 3.7120416164398193 -0.8255199950984498 0.8430169264422815 -1.588313718835348 -1.5707529226886194 2.141295909881592 0.0 0.0 0.0 -0.0 0.0 0.0 1 False False

12587.882 3.712045907974243 -0.8254950803569336 0.8429930845843714 -1.5882412395873011 -1.570784870778219 2.1413047313690186 0.0 0.0 0.0 -0.0 0.0 0.0 1 False False

12587.931999999999 3.7120537757873535 -0.825519935493805 0.842992130910055 -1.5882774792113246 -1.5707691351519983 2.141242742538452 0.0 0.0 0.0 -0.0 0.0 0.0 1 False False

12587.982 3.7121024131774902 -0.8254664105227967 0.8429721037494105 -1.588320871392721 -1.5707967917071741 2.1413047313690186 0.0 0.0 0.0 -0.0 0.0 0.0 1 False False

12588.032 3.712062358856201 -0.8255404990962525 0.8429759184466761 -1.5882889233031214 -1.5707529226886194 2.141279697418213 0.0 0.0 0.0 -0.0 0.0 0.0 1 False False

12588.082 3.7120742797851562 -0.8254415553859253 0.8429930845843714 -1.588273664514059 -1.570784870778219 2.141287088394165 0.0 0.0 0.0 -0.0 0.0 0.0 1 False False

12588.132 3.712106704711914 -0.8255037826350708 0.8430212179767054 -1.5882731876769007 -1.5707929770099085 2.1413159370422363 0.0 0.0 0.0 -0.0 0.0 0.0 1 False False

12588.181999999999 3.7120938301086426 -0.8254739803126832 0.8429887930499476 -1.5883013210692347 -1.5707967917071741 2.141267776489258 0.0 0.0 0.0 -0.0 0.0 0.0 1 False False

12588.232 3.7120819091796875 -0.8255037826350708 0.8429635206805628 -1.5882932148375453 -1.5708087126361292 2.141287088394165 0.0 0.0 0.0 -0.0 0.0 0.0 1 False False

12588.282 3.7121036052703857 -0.8254869741252442 0.8429887930499476 -1.5882774792113246 -1.570732895527975 2.1412558555603027 0.0 0.0 0.0 -0.0 0.0 0.0 1 False False

12588.332 3.7120742797851562 -0.825425462131836 0.842931095753805 -1.5882889233031214 -1.5707648436175745 2.141270637512207 0.0 0.0 0.0 -0.0 0.0 0.0 1 False False

12588.382 3.7120656967163086 -0.8255080741694947 0.8430092970477503 -1.5883532963194789 -1.5707686583148401 2.141313076019287 0.0 0.0 0.0 -0.0 0.0 0.0 1 False False

12588.431999999999 3.712127208709717 -0.8255037826350708 0.8429520765887659 -1.588292738000387 -1.5708449522601526 2.141275405883789 0.0 0.0 0.0 -0.0 0.0 0.0 1 False False

12588.482 3.7120323181152344 -0.8254822653583069 0.8429563681231897 -1.588320871392721 -1.570801083241598 2.1413004398345947 0.0 0.0 0.0 -0.0 0.0 0.0 1 False False

12588.532 3.7121026515960693 -0.8255080741694947 0.842956844960348 -1.588280817071432 -1.5707886854754847 2.141317367553711 0.0 0.0 0.0 -0.0 0.0 0.0 1 False False

12588.582 3.7121145725250244 -0.8254822653583069 0.8429635206805628 -1.588297029534811 -1.570813004170553 2.1413004398345947 0.0 0.0 0.0 -0.0 0.0 0.0 1 False False

12588.632 3.712095022201538 -0.8254993718913575 0.8430007139789026 -1.588292738000387 -1.5707891623126429 2.141313076019287 0.0 0.0 0.0 -0.0 0.0 0.0 1 False False

12588.681999999999 3.7120907306671143 -0.8255404990962525 0.8429721037494105 -1.5883246860899867 -1.570813004170553 2.141279697418213 0.0 0.0 0.0 -0.0 0.0 0.0 1 False False

12588.782 3.7120816707611084 -0.825429694061615 0.8430007139789026 -1.5882612667479457 -1.570784870778219 2.1412839889526367 0.0 0.0 0.0 -0.0 0.0 0.0 1 False False

12588.832 3.712045669555664 -0.8255404394916077 0.8429964224444788 -1.5882889233031214 -1.5707648436175745 2.141275405883789 0.0 0.0 0.0 -0.0 0.0 0.0 1 False False

12588.882 3.7120862007141113 -0.8255208891681214 0.8429563681231897 -1.588273664514059 -1.5707724730121058 2.1413135528564453 0.0 0.0 0.0 -0.0 0.0 0.0 1 False False

12588.931999999999 3.7120816707611084 -0.8254908484271546 0.8430374304400843 -1.588280817071432 -1.5708087126361292 2.1412994861602783 0.0 0.0 0.0 -0.0 0.0 0.0 1 False False

12588.982 3.7120532989501953 -0.8255080741694947 0.8430007139789026 -1.5883246860899867 -1.5708087126361292 2.141263484954834 0.0 0.0 0.0 -0.0 0.0 0.0 1 False False

12589.032 3.712106943130493 -0.8255027693561097 0.8429520765887659 -1.5883213482298792 -1.570829216633932 2.141329288482666 0.0 0.0 0.0 -0.0 0.0 0.0 1 False False

12589.082 3.712111473083496 -0.8254951399615784 0.842959229146139 -1.5883127651610316 -1.5707648436175745 2.1412782669067383 0.0 0.0 0.0 -0.0 0.0 0.0 1 False False

12589.132 3.7120578289031982 -0.8255447310260315 0.8429930845843714 -1.5882612667479457 -1.5707805792437952 2.141313076019287 0.0 0.0 0.0 -0.0 0.0 0.0 1 False False

12589.181999999999 3.7120697498321533 -0.8255403798869629 0.8429930845843714 -1.5883013210692347 -1.5707925001727503 2.1413049697875977 0.0 0.0 0.0 -0.0 0.0 0.0 1 False False

12589.232 3.712095022201538 -0.8255532544902344 0.8429806868182581 -1.5882655582823695 -1.5708168188678187 2.141291618347168 0.0 0.0 0.0 -0.0 0.0 0.0 1 False False

12589.282 3.7120444774627686 -0.8254621189883729 0.8429973761187952 -1.588280817071432 -1.5708044211017054 2.1413261890411377 0.0 0.0 0.0 -0.0 0.0 0.0 1 False False

12589.332 3.7120816707611084 -0.8255317372134705 0.8429802099810999 -1.588273664514059 -1.5708335081683558 2.141270637512207 0.0 0.0 0.0 -0.0 0.0 0.0 1 False False

12589.382 3.712066888809204 -0.8254663509181519 0.8429887930499476 -1.5882774792113246 -1.5707724730121058 2.141258955001831 0.0 0.0 0.0 -0.0 0.0 0.0 1 False False

12589.431999999999 3.71209979057312 -0.8254866164973755 0.8429563681231897 -1.5883370838561 -1.5707810560809534 2.141317367553711 0.0 0.0 0.0 -0.0 0.0 0.0 1 False False

12589.482 3.7121071815490723 -0.8255641025355835 0.8430021444903772 -1.5882531605162562 -1.5707605520831507 2.1413159370422363 0.0 0.0 0.0 -0.0 0.0 0.0 1 False False

12589.532 3.7120578289031982 -0.8254955571940918 0.8429673353778284 -1.5882889233031214 -1.5707686583148401 2.1413092613220215 0.0 0.0 0.0 -0.0 0.0 0.0 1 False False

12589.582 3.71209979057312 -0.8255403798869629 0.8429721037494105 -1.5882569752135218 -1.570801083241598 2.141238212585449 0.0 0.0 0.0 -0.0 0.0 0.0 1 False False

12589.632 3.712144613265991 -0.8255080741694947 0.8429482618915003 -1.5882698498167933 -1.5707805792437952 2.141279697418213 0.0 0.0 0.0 -0.0 0.0 0.0 1 False False

12589.681999999999 3.712095260620117 -0.8255166572383423 0.8429935614215296 -1.588313718835348 -1.57074481645693 2.141329288482666 0.0 0.0 0.0 -0.0 0.0 0.0 1 False False

12589.732 3.7120742797851562 -0.8254954379848023 0.8429935614215296 -1.5883413753905238 -1.5707486311541956 2.141308546066284 0.0 0.0 0.0 -0.0 0.0 0.0 1 False False

12589.782 3.712083339691162 -0.8254950803569336 0.8429234663592737 -1.5883094273009242 -1.5708335081683558 2.1413469314575195 0.0 0.0 0.0 -0.0 0.0 0.0 1 False False

12589.832 3.7120413780212402 -0.8255070012858887 0.8430097738849085 -1.588285585443014 -1.570801083241598 2.141324996948242 0.0 0.0 0.0 -0.0 0.0 0.0 1 False False

12589.882 3.712095260620117 -0.8255037826350708 0.8429425398456019 -1.5882774792113246 -1.5708087126361292 2.141284227371216 0.0 0.0 0.0 -0.0 0.0 0.0 1 False False

12589.931999999999 3.7120535373687744 -0.8255069416812439 0.8429754416095179 -1.5882569752135218 -1.570801083241598 2.14123797416687 0.0 0.0 0.0 -0.0 0.0 0.0 1 False False

12589.982 3.7120532989501953 -0.825478271847107 0.8430426756488245 -1.588320871392721 -1.5708373228656214 2.141254425048828 0.0 0.0 0.0 -0.0 0.0 0.0 1 False False

12590.032 3.712083339691162 -0.8254707616618653 0.8430054823504847 -1.5882650814452113 -1.5707805792437952 2.141270637512207 0.0 0.0 0.0 -0.0 0.0 0.0 1 False False

12590.132 3.7120652198791504 -0.8255242866328736 0.8429673353778284 -1.5882932148375453 -1.5707648436175745 2.141263484954834 0.0 0.0 0.0 -0.0 0.0 0.0 1 False False

12590.181999999999 3.7120907306671143 -0.8255080741694947 0.8429935614215296 -1.5883413753905238 -1.5707443396197718 2.141247034072876 0.0 0.0 0.0 -0.0 0.0 0.0 1 False False

12590.232 3.7120697498321533 -0.8255037826350708 0.8430054823504847 -1.5882932148375453 -1.5708335081683558 2.1412839889526367 0.0 0.0 0.0 -0.0 0.0 0.0 1 False False

12590.282 3.712062358856201 -0.8255037826350708 0.8429473082171839 -1.5882731876769007 -1.5708168188678187 2.141263246536255 0.0 0.0 0.0 -0.0 0.0 0.0 1 False False

12590.332 3.7120726108551025 -0.8255242270282288 0.8429563681231897 -1.5883003673949183 -1.570813004170553 2.141258955001831 0.0 0.0 0.0 -0.0 0.0 0.0 1 False False

12590.382 3.7121357917785645 -0.8255567711642762 0.8429721037494105 -1.5882846317686976 -1.5707805792437952 2.141317367553711 0.0 0.0 0.0 -0.0 0.0 0.0 1 False False

12590.431999999999 3.7121400833129883 -0.8255038422397156 0.8430007139789026 -1.5882650814452113 -1.5707805792437952 2.141291618347168 0.0 0.0 0.0 -0.0 0.0 0.0 1 False False

12590.482 3.7120535373687744 -0.8254993718913575 0.8429721037494105 -1.5882932148375453 -1.5708087126361292 2.141267776489258 0.0 0.0 0.0 -0.0 0.0 0.0 1 False False

12590.532 3.71213698387146 -0.825457827453949 0.8429964224444788 -1.5882731876769007 -1.5708487669574183 2.141270637512207 0.0 0.0 0.0 -0.0 0.0 0.0 1 False False

12590.582 3.7120413780212402 -0.8255242866328736 0.8430097738849085 -1.5882889233031214 -1.570813004170553 2.1413261890411377 0.0 0.0 0.0 -0.0 0.0 0.0 1 False False

12590.632 3.7120935916900635 -0.8255199950984498 0.8429811636554163 -1.5882569752135218 -1.5707724730121058 2.1412336826324463 0.0 0.0 0.0 -0.0 0.0 0.0 1 False False

12590.681999999999 3.7121400833129883 -0.8254587811282654 0.8429673353778284 -1.5882932148375453 -1.570801083241598 2.1412127017974854 0.0 0.0 0.0 -0.0 0.0 0.0 1 False False

12590.732 3.7120697498321533 -0.8255243462375184 0.8429802099810999 -1.5882774792113246 -1.5707686583148401 2.141254186630249 0.0 0.0 0.0 -0.0 0.0 0.0 1 False False

12590.782 3.7120535373687744 -0.8255037826350708 0.8429978529559534 -1.5883056126036585 -1.5707648436175745 2.141270637512207 0.0 0.0 0.0 -0.0 0.0 0.0 1 False False

12590.832 3.7120907306671143 -0.8254954975894471 0.8429439703570765 -1.5883056126036585 -1.5707724730121058 2.1412839889526367 0.0 0.0 0.0 -0.0 0.0 0.0 1 False False

12590.882 3.712123394012451 -0.8254739803126832 0.8430007139789026 -1.5882569752135218 -1.5708335081683558 2.141287088394165 0.0 0.0 0.0 -0.0 0.0 0.0 1 False False

12590.931999999999 3.7121143341064453 -0.8255070012858887 0.8429763952838343 -1.588245531121725 -1.5708048979388636 2.1412885189056396 0.0 0.0 0.0 -0.0 0.0 0.0 1 False False

12590.982 3.7120862007141113 -0.8255317372134705 0.8429802099810999 -1.5882774792113246 -1.5708168188678187 2.141263246536255 0.0 0.0 0.0 -0.0 0.0 0.0 1 False False

12591.032 3.7120935916900635 -0.8254907888225098 0.8429935614215296 -1.5883013210692347 -1.5707648436175745 2.141333818435669 0.0 0.0 0.0 -0.0 0.0 0.0 1 False False

12591.082 3.7120325565338135 -0.8254869741252442 0.8429673353778284 -1.5882889233031214 -1.5708006064044397 2.14123797416687 0.0 0.0 0.0 -0.0 0.0 0.0 1 False False

12591.132 3.7120938301086426 -0.825478271847107 0.8429301420794886 -1.588297029534811 -1.570768181477682 2.141279697418213 0.0 0.0 0.0 -0.0 0.0 0.0 1 False False

12591.181999999999 3.712160348892212 -0.8254663509181519 0.8429892698871058 -1.588269372979635 -1.570768181477682 2.1413040161132812 0.0 0.0 0.0 -0.0 0.0 0.0 1 False False

12591.232 3.712127685546875 -0.8255146902850647 0.8429563681231897 -1.588320871392721 -1.570801083241598 2.141258955001831 0.0 0.0 0.0 -0.0 0.0 0.0 1 False False

12591.282 3.7121143341064453 -0.8255523604205628 0.842910114918844 -1.5882374248900355 -1.5707529226886194 2.141230583190918 0.0 0.0 0.0 -0.0 0.0 0.0 1 False False

12591.332 3.7120907306671143 -0.8255123657039185 0.8429392019854944 -1.5883294544615687 -1.5708449522601526 2.1412618160247803 0.0 0.0 0.0 -0.0 0.0 0.0 1 False False

12591.431999999999 3.712111234664917 -0.825486497288086 0.8429587523089808 -1.5882731876769007 -1.570813004170553 2.141249895095825 0.0 0.0 0.0 -0.0 0.0 0.0 1 False False

12591.482 3.7120492458343506 -0.8254588407329102 0.8429964224444788 -1.5882169208922328 -1.5708211104022425 2.141295909881592 0.0 0.0 0.0 -0.0 0.0 0.0 1 False False

12591.532 3.712127447128296 -0.825491265659668 0.8429935614215296 -1.5883013210692347 -1.5707686583148401 2.141287088394165 0.0 0.0 0.0 -0.0 0.0 0.0 1 False False

12591.582 3.7120862007141113 -0.8255362075618287 0.8429430166827601 -1.5882650814452113 -1.5708254019366663 2.141296148300171 0.0 0.0 0.0 -0.0 0.0 0.0 1 False False

12591.632 3.712115526199341 -0.8254707616618653 0.8429721037494105 -1.5882774792113246 -1.5707686583148401 2.141263484954834 0.0 0.0 0.0 -0.0 0.0 0.0 1 False False

12591.681999999999 3.7120981216430664 -0.8255199950984498 0.8430007139789026 -1.5883332691588343 -1.5708087126361292 2.141263246536255 0.0 0.0 0.0 -0.0 0.0 0.0 1 False False

12591.732 3.712090492248535 -0.8255242866328736 0.8429845015155237 -1.5882569752135218 -1.570784870778219 2.141313076019287 0.0 0.0 0.0 -0.0 0.0 0.0 1 False False

12591.832 3.7120580673217773 -0.8254825633815308 0.8429349104510706 -1.588320871392721 -1.5707886854754847 2.1412723064422607 0.0 0.0 0.0 -0.0 0.0 0.0 1 False False

12591.882 3.7120285034179688 -0.8254697483829041 0.8429678122149866 -1.588285585443014 -1.5707605520831507 2.141279697418213 0.0 0.0 0.0 -0.0 0.0 0.0 1 False False

12591.931999999999 3.712062358856201 -0.8254993718913575 0.8429930845843714 -1.5882932148375453 -1.5707486311541956 2.141279697418213 0.0 0.0 0.0 -0.0 0.0 0.0 1 False False

12591.982 3.7120580673217773 -0.8254339259913941 0.8429763952838343 -1.588313718835348 -1.5707967917071741 2.141247034072876 0.0 0.0 0.0 -0.0 0.0 0.0 1 False False

12592.032 3.712111234664917 -0.8254383963397522 0.8430054823504847 -1.5882650814452113 -1.5707967917071741 2.141266345977783 0.0 0.0 0.0 -0.0 0.0 0.0 1 False False

12592.082 3.712127447128296 -0.8254782122424622 0.8429563681231897 -1.588269372979635 -1.5708168188678187 2.14127516746521 0.0 0.0 0.0 -0.0 0.0 0.0 1 False False

12592.132 3.712118625640869 -0.8254663509181519 0.8429678122149866 -1.5883251629271449 -1.5708254019366663 2.141308546066284 0.0 0.0 0.0 -0.0 0.0 0.0 1 False False

12592.181999999999 3.7120819091796875 -0.8255640429309388 0.8429964224444788 -1.5882765255370082 -1.5708254019366663 2.141287088394165 0.0 0.0 0.0 -0.0 0.0 0.0 1 False False

12592.232 3.7120862007141113 -0.8255080741694947 0.8430331389056605 -1.5882889233031214 -1.570784870778219 2.141270637512207 0.0 0.0 0.0 -0.0 0.0 0.0 1 False False

12592.282 3.712111234664917 -0.8254739803126832 0.8429763952838343 -1.588269372979635 -1.5708087126361292 2.141308546066284 0.0 0.0 0.0 -0.0 0.0 0.0 1 False False

12592.332 3.7120862007141113 -0.8255155843547364 0.8429802099810999 -1.5882774792113246 -1.5708044211017054 2.141267776489258 0.0 0.0 0.0 -0.0 0.0 0.0 1 False False

12592.382 3.712062358856201 -0.8255199950984498 0.8429353872882288 -1.588292738000387 -1.570784870778219 2.141291618347168 0.0 0.0 0.0 -0.0 0.0 0.0 1 False False

12592.431999999999 3.7120614051818848 -0.8254869741252442 0.8429678122149866 -1.588252683679098 -1.5707967917071741 2.1413040161132812 0.0 0.0 0.0 -0.0 0.0 0.0 1 False False

12592.482 3.7120373249053955 -0.8255362075618287 0.8429520765887659 -1.5882774792113246 -1.570829216633932 2.141242504119873 0.0 0.0 0.0 -0.0 0.0 0.0 1 False False

12592.532 3.712127208709717 -0.8255080145648499 0.8429759184466761 -1.588320871392721 -1.570784870778219 2.141287088394165 0.0 0.0 0.0 -0.0 0.0 0.0 1 False False

12592.582 3.7121071815490723 -0.8254674238017579 0.8430169264422815 -1.5883013210692347 -1.5707891623126429 2.14123797416687 0.0 0.0 0.0 -0.0 0.0 0.0 1 False False

12592.632 3.7120981216430664 -0.8254739803126832 0.8430007139789026 -1.5882851086058558 -1.5707767645465296 2.141336679458618 0.0 0.0 0.0 -0.0 0.0 0.0 1 False False

12592.681999999999 3.712123394012451 -0.8254869741252442 0.8429964224444788 -1.5882774792113246 -1.5708168188678187 2.141341209411621 0.0 0.0 0.0 -0.0 0.0 0.0 1 False False

12592.732 3.7120535373687744 -0.8255080741694947 0.8429845015155237 -1.588297029534811 -1.570853058491842 2.1413004398345947 0.0 0.0 0.0 -0.0 0.0 0.0 1 False False

12592.782 3.7121100425720215 -0.8254782122424622 0.8429520765887659 -1.5882765255370082 -1.570784870778219 2.141296148300171 0.0 0.0 0.0 -0.0 0.0 0.0 1 False False

12592.832 3.7121188640594482 -0.8255274456790467 0.8430212179767054 -1.5882607899107875 -1.5707967917071741 2.141295909881592 0.0 0.0 0.0 -0.0 0.0 0.0 1 False False

12592.882 3.7120606899261475 -0.8255037826350708 0.8429520765887659 -1.5882488689818324 -1.5708168188678187 2.141296148300171 0.0 0.0 0.0 -0.0 0.0 0.0 1 False False

12592.931999999999 3.7120535373687744 -0.8255404394916077 0.8429678122149866 -1.588320871392721 -1.5707767645465296 2.141317367553711 0.0 0.0 0.0 -0.0 0.0 0.0 1 False False

12592.982 3.7120728492736816 -0.8255403798869629 0.8429477850543421 -1.5882655582823695 -1.5707886854754847 2.141295909881592 0.0 0.0 0.0 -0.0 0.0 0.0 1 False False

12593.032 3.7120742797851562 -0.8254546088031312 0.8429434935199183 -1.588297029534811 -1.570756737385885 2.141321897506714 0.0 0.0 0.0 -0.0 0.0 0.0 1 False False

12593.082 3.7120697498321533 -0.8255404990962525 0.8429878393756312 -1.5883327923216761 -1.570853058491842 2.141270637512207 0.0 0.0 0.0 -0.0 0.0 0.0 1 False False

12593.132 3.7120862007141113 -0.8255327504924317 0.8429763952838343 -1.5883165798582972 -1.5708406607257288 2.141254425048828 0.0 0.0 0.0 -0.0 0.0 0.0 1 False False

12593.232 3.7120490074157715 -0.8254792851260682 0.8429282347308558 -1.5883094273009242 -1.5707886854754847 2.141296148300171 0.0 0.0 0.0 -0.0 0.0 0.0 1 False False

12593.282 3.712036609649658 -0.8254223626903077 0.8429268042193812 -1.5883413753905238 -1.570801083241598 2.141317367553711 0.0 0.0 0.0 -0.0 0.0 0.0 1 False False

12593.332 3.7120697498321533 -0.8254942458919068 0.8429477850543421 -1.5883246860899867 -1.5707967917071741 2.141317367553711 0.0 0.0 0.0 -0.0 0.0 0.0 1 False False

12593.382 3.7120771408081055 -0.8254869741252442 0.8429887930499476 -1.588292738000387 -1.570813004170553 2.1413004398345947 0.0 0.0 0.0 -0.0 0.0 0.0 1 False False

12593.431999999999 3.7120532989501953 -0.8254825633815308 0.8429802099810999 -1.5883094273009242 -1.5707891623126429 2.141279697418213 0.0 0.0 0.0 -0.0 0.0 0.0 1 False False

12593.482 3.7120907306671143 -0.8254740399173279 0.8429678122149866 -1.588292738000387 -1.5707967917071741 2.14127516746521 0.0 0.0 0.0 -0.0 0.0 0.0 1 False False

12593.532 3.7120490074157715 -0.8254416745952149 0.8429887930499476 -1.588268896142477 -1.5707767645465296 2.141258955001831 0.0 0.0 0.0 -0.0 0.0 0.0 1 False False

12593.582 3.712083339691162 -0.8254740995219727 0.8429892698871058 -1.5882417164244593 -1.570784870778219 2.141308546066284 0.0 0.0 0.0 -0.0 0.0 0.0 1 False False

12593.632 3.7120578289031982 -0.825458900337555 0.8429563681231897 -1.588273664514059 -1.5707882086383265 2.141279697418213 0.0 0.0 0.0 -0.0 0.0 0.0 1 False False

12593.681999999999 3.7120907306671143 -0.825512246494629 0.8429587523089808 -1.5883246860899867 -1.5708168188678187 2.1413004398345947 0.0 0.0 0.0 -0.0 0.0 0.0 1 False False

12593.732 3.7120606899261475 -0.8255274456790467 0.8429563681231897 -1.5883165798582972 -1.5707967917071741 2.141258955001831 0.0 0.0 0.0 -0.0 0.0 0.0 1 False False

12593.782 3.712078809738159 -0.8254459661296387 0.8429482618915003 -1.588297506371969 -1.5707724730121058 2.1412513256073 0.0 0.0 0.0 -0.0 0.0 0.0 1 False False

12593.832 3.712062358856201 -0.8255070608905335 0.8429887930499476 -1.588234087029928 -1.5707572142230433 2.141249895095825 0.0 0.0 0.0 -0.0 0.0 0.0 1 False False

12593.882 3.7120532989501953 -0.8255360883525391 0.8429845015155237 -1.588292738000387 -1.5707805792437952 2.1413092613220215 0.0 0.0 0.0 -0.0 0.0 0.0 1 False False

12593.931999999999 3.7120981216430664 -0.8254708212665101 0.8430007139789026 -1.5882655582823695 -1.5708048979388636 2.141267776489258 0.0 0.0 0.0 -0.0 0.0 0.0 1 False False

12593.982 3.7120907306671143 -0.8255361479571839 0.8430336157428187 -1.5882488689818324 -1.5708335081683558 2.141329288482666 0.0 0.0 0.0 -0.0 0.0 0.0 1 False False

12594.032 3.71209979057312 -0.8254621785930176 0.8429515997516077 -1.5883251629271449 -1.5707967917071741 2.1412885189056396 0.0 0.0 0.0 -0.0 0.0 0.0 1 False False

12594.082 3.7120981216430664 -0.825519935493805 0.8429845015155237 -1.5883251629271449 -1.5707967917071741 2.141266107559204 0.0 0.0 0.0 -0.0 0.0 0.0 1 False False

12594.132 3.712111473083496 -0.8254664105227967 0.8429845015155237 -1.5882932148375453 -1.5708487669574183 2.141267776489258 0.0 0.0 0.0 -0.0 0.0 0.0 1 False False

12594.181999999999 3.7120742797851562 -0.8254663509181519 0.8429754416095179 -1.5882483921446742 -1.5707610289203089 2.1412513256073 0.0 0.0 0.0 -0.0 0.0 0.0 1 False False

12594.232 3.7120862007141113 -0.8254912060550232 0.8429721037494105 -1.5883094273009242 -1.5707529226886194 2.141338348388672 0.0 0.0 0.0 -0.0 0.0 0.0 1 False False

12594.282 3.7121026515960693 -0.8254994314960022 0.8429673353778284 -1.5883013210692347 -1.5708006064044397 2.141278028488159 0.0 0.0 0.0 -0.0 0.0 0.0 1 False False

12594.332 3.7120816707611084 -0.8255070012858887 0.8429515997516077 -1.5883094273009242 -1.5707886854754847 2.141233444213867 0.0 0.0 0.0 -0.0 0.0 0.0 1 False False

12594.382 3.7120277881622314 -0.8255155247500916 0.8429587523089808 -1.5882612667479457 -1.570829216633932 2.141333818435669 0.0 0.0 0.0 -0.0 0.0 0.0 1 False False

12594.431999999999 3.7121565341949463 -0.8254993122867127 0.8429802099810999 -1.5882412395873011 -1.5707967917071741 2.141287088394165 0.0 0.0 0.0 -0.0 0.0 0.0 1 False False

12594.482 3.7120368480682373 -0.8254825633815308 0.8429473082171839 -1.5882817707457484 -1.5707891623126429 2.1412782669067383 0.0 0.0 0.0 -0.0 0.0 0.0 1 False False

12594.532 3.712083101272583 -0.825512246494629 0.8429845015155237 -1.588320871392721 -1.5707767645465296 2.141279697418213 0.0 0.0 0.0 -0.0 0.0 0.0 1 False False

12594.632 3.7120816707611084 -0.8255123060992737 0.8429349104510706 -1.5883127651610316 -1.5708206335650843 2.141284227371216 0.0 0.0 0.0 -0.0 0.0 0.0 1 False False

12594.681999999999 3.7120447158813477 -0.8254908484271546 0.8429425398456019 -1.5882846317686976 -1.5708211104022425 2.1413004398345947 0.0 0.0 0.0 -0.0 0.0 0.0 1 False False

12594.732 3.7121024131774902 -0.8255037826350708 0.8429721037494105 -1.5883094273009242 -1.5707929770099085 2.141266107559204 0.0 0.0 0.0 -0.0 0.0 0.0 1 False False

12594.782 3.7121024131774902 -0.825519935493805 0.8429563681231897 -1.5883532963194789 -1.5708006064044397 2.141251564025879 0.0 0.0 0.0 -0.0 0.0 0.0 1 False False

12594.832 3.7121188640594482 -0.8255189818194886 0.8430007139789026 -1.5882607899107875 -1.5707529226886194 2.141321897506714 0.0 0.0 0.0 -0.0 0.0 0.0 1 False False

12594.882 3.712123155593872 -0.8254459661296387 0.8429964224444788 -1.5882817707457484 -1.5708125273333948 2.141308546066284 0.0 0.0 0.0 -0.0 0.0 0.0 1 False False

12594.931999999999 3.7120981216430664 -0.8254740399173279 0.8429563681231897 -1.5882774792113246 -1.570772949849264 2.141266107559204 0.0 0.0 0.0 -0.0 0.0 0.0 1 False False

12594.982 3.7120819091796875 -0.8254909080317994 0.8429978529559534 -1.5883094273009242 -1.570784870778219 2.141270637512207 0.0 0.0 0.0 -0.0 0.0 0.0 1 False False

12595.032 3.7121362686157227 -0.8255037826350708 0.8429606596576136 -1.5882412395873011 -1.5707686583148401 2.141251564025879 0.0 0.0 0.0 -0.0 0.0 0.0 1 False False

12595.082 3.7120773792266846 -0.8255231541446229 0.8430216948138636 -1.5883170566954554 -1.5707810560809534 2.141296148300171 0.0 0.0 0.0 -0.0 0.0 0.0 1 False False

12595.132 3.712090492248535 -0.8254869741252442 0.8429892698871058 -1.588297029534811 -1.5708254019366663 2.141282558441162 0.0 0.0 0.0 -0.0 0.0 0.0 1 False False

12595.181999999999 3.7121188640594482 -0.8254616421512146 0.8429845015155237 -1.5883127651610316 -1.5707967917071741 2.141313076019287 0.0 0.0 0.0 -0.0 0.0 0.0 1 False False

12595.232 3.7121024131774902 -0.8254949611476441 0.8429887930499476 -1.5882774792113246 -1.5707967917071741 2.141258955001831 0.0 0.0 0.0 -0.0 0.0 0.0 1 False False

12595.282 3.7120699882507324 -0.8255083721927186 0.8430126349078577 -1.5882731876769007 -1.570784870778219 2.141242504119873 0.0 0.0 0.0 -0.0 0.0 0.0 1 False False

12595.332 3.7120373249053955 -0.8254543107799073 0.8429587523089808 -1.5882889233031214 -1.5708125273333948 2.141270637512207 0.0 0.0 0.0 -0.0 0.0 0.0 1 False False

12595.382 3.712106704711914 -0.8255157035640259 0.8429630438434046 -1.5882498226561488 -1.5707767645465296 2.141291618347168 0.0 0.0 0.0 -0.0 0.0 0.0 1 False False

12595.431999999999 3.7120819091796875 -0.8254751128009339 0.8429515997516077 -1.5882650814452113 -1.5708211104022425 2.141308546066284 0.0 0.0 0.0 -0.0 0.0 0.0 1 False False

12595.482 3.7120862007141113 -0.8255156439593812 0.8429563681231897 -1.5882889233031214 -1.5707767645465296 2.141267776489258 0.0 0.0 0.0 -0.0 0.0 0.0 1 False False

12595.532 3.712090492248535 -0.8254913252643128 0.8429935614215296 -1.5882774792113246 -1.5707967917071741 2.14132022857666 0.0 0.0 0.0 -0.0 0.0 0.0 1 False False

12595.582 3.712066650390625 -0.8254706424525757 0.8429935614215296 -1.5882817707457484 -1.5707686583148401 2.141282558441162 0.0 0.0 0.0 -0.0 0.0 0.0 1 False False

12595.632 3.7120862007141113 -0.8255661290935059 0.8429935614215296 -1.588297029534811 -1.5708168188678187 2.1413004398345947 0.0 0.0 0.0 -0.0 0.0 0.0 1 False False

12595.681999999999 3.7120656967163086 -0.8255365651896973 0.8430126349078577 -1.588292738000387 -1.5708373228656214 2.141254186630249 0.0 0.0 0.0 -0.0 0.0 0.0 1 False False

12595.732 3.71201229095459 -0.8254675430110474 0.8429721037494105 -1.5883289776244105 -1.5708087126361292 2.141308546066284 0.0 0.0 0.0 -0.0 0.0 0.0 1 False False

12595.782 3.7121143341064453 -0.8255290550044556 0.8429721037494105 -1.5883375606932582 -1.570813004170553 2.141258955001831 0.0 0.0 0.0 -0.0 0.0 0.0 1 False False

12595.832 3.712099313735962 -0.8254957360080262 0.8429678122149866 -1.5882932148375453 -1.570801083241598 2.141295909881592 0.0 0.0 0.0 -0.0 0.0 0.0 1 False False

12595.882 3.7120580673217773 -0.8254949611476441 0.8429759184466761 -1.5882650814452113 -1.5707767645465296 2.141263246536255 0.0 0.0 0.0 -0.0 0.0 0.0 1 False False

12595.931999999999 3.7120656967163086 -0.8255528968623658 0.8429678122149866 -1.5883170566954554 -1.570801083241598 2.141279697418213 0.0 0.0 0.0 -0.0 0.0 0.0 1 False False

12595.982 3.7120819091796875 -0.8254823845675965 0.8429563681231897 -1.588320871392721 -1.570772949849264 2.141284227371216 0.0 0.0 0.0 -0.0 0.0 0.0 1 False False

12596.082 3.7120656967163086 -0.8254587811282654 0.8429606596576136 -1.588297029534811 -1.5707967917071741 2.141254186630249 0.0 0.0 0.0 -0.0 0.0 0.0 1 False False

12596.132 3.7121024131774902 -0.8255083721927186 0.8429802099810999 -1.5882889233031214 -1.570813004170553 2.141333818435669 0.0 0.0 0.0 -0.0 0.0 0.0 1 False False

12596.181999999999 3.7120862007141113 -0.8255320352366944 0.8430007139789026 -1.5882851086058558 -1.5707767645465296 2.141254186630249 0.0 0.0 0.0 -0.0 0.0 0.0 1 False False

12596.232 3.7121026515960693 -0.8254913848689576 0.8430050055133265 -1.5882650814452113 -1.5707805792437952 2.141275405883789 0.0 0.0 0.0 -0.0 0.0 0.0 1 False False

12596.282 3.712062358856201 -0.8255157035640259 0.8429520765887659 -1.588320871392721 -1.570829216633932 2.141249895095825 0.0 0.0 0.0 -0.0 0.0 0.0 1 False False

12596.332 3.7120609283447266 -0.8254869741252442 0.8429845015155237 -1.5883013210692347 -1.570801083241598 2.14127516746521 0.0 0.0 0.0 -0.0 0.0 0.0 1 False False

12596.382 3.712106943130493 -0.8254905504039307 0.8430092970477503 -1.588273664514059 -1.570784870778219 2.141263246536255 0.0 0.0 0.0 -0.0 0.0 0.0 1 False False

12596.431999999999 3.7120742797851562 -0.8255039018443604 0.8429563681231897 -1.5882774792113246 -1.5707362333880823 2.141313076019287 0.0 0.0 0.0 -0.0 0.0 0.0 1 False False

12596.482 3.7121100425720215 -0.8254246276668091 0.8429678122149866 -1.5883003673949183 -1.57074481645693 2.141270637512207 0.0 0.0 0.0 -0.0 0.0 0.0 1 False False

12596.532 3.7120652198791504 -0.825527624492981 0.8429678122149866 -1.5883413753905238 -1.570784870778219 2.141249895095825 0.0 0.0 0.0 -0.0 0.0 0.0 1 False False

12596.582 3.712095022201538 -0.8254706424525757 0.8429678122149866 -1.5882488689818324 -1.5707772413836878 2.141279697418213 0.0 0.0 0.0 -0.0 0.0 0.0 1 False False

12596.632 3.7120862007141113 -0.825466052894928 0.8429930845843714 -1.5882932148375453 -1.5707767645465296 2.141284227371216 0.0 0.0 0.0 -0.0 0.0 0.0 1 False False

12596.681999999999 3.7120444774627686 -0.8254905504039307 0.8429520765887659 -1.588297029534811 -1.5707925001727503 2.141313076019287 0.0 0.0 0.0 -0.0 0.0 0.0 1 False False

12596.732 3.712083101272583 -0.8254913848689576 0.8429520765887659 -1.588320871392721 -1.570756737385885 2.14131760597229 0.0 0.0 0.0 -0.0 0.0 0.0 1 False False

12596.782 3.7120683193206787 -0.8255157035640259 0.8429887930499476 -1.5883094273009242 -1.5707886854754847 2.14127516746521 0.0 0.0 0.0 -0.0 0.0 0.0 1 False False

12596.832 3.7121312618255615 -0.8254949611476441 0.8429678122149866 -1.5883332691588343 -1.570801083241598 2.141296148300171 0.0 0.0 0.0 -0.0 0.0 0.0 1 False False

12596.882 3.7120323181152344 -0.8254823845675965 0.8429802099810999 -1.5883013210692347 -1.5707891623126429 2.141291618347168 0.0 0.0 0.0 -0.0 0.0 0.0 1 False False

12596.931999999999 3.7120981216430664 -0.8254817885211487 0.8429763952838343 -1.5882774792113246 -1.5708335081683558 2.1412885189056396 0.0 0.0 0.0 -0.0 0.0 0.0 1 False False

12596.982 3.7120816707611084 -0.8254869741252442 0.8429930845843714 -1.5882336101927699 -1.5707648436175745 2.1412994861602783 0.0 0.0 0.0 -0.0 0.0 0.0 1 False False

12597.032 3.7120981216430664 -0.8255246442607422 0.8429973761187952 -1.588313718835348 -1.5707648436175745 2.14131760597229 0.0 0.0 0.0 -0.0 0.0 0.0 1 False False

12597.082 3.712036609649658 -0.8254706424525757 0.8429930845843714 -1.588297506371969 -1.5708006064044397 2.141284227371216 0.0 0.0 0.0 -0.0 0.0 0.0 1 False False

12597.132 3.7120697498321533 -0.825454370384552 0.8430050055133265 -1.588280817071432 -1.5708335081683558 2.141258955001831 0.0 0.0 0.0 -0.0 0.0 0.0 1 False False

12597.181999999999 3.712071418762207 -0.8254735630801697 0.8429520765887659 -1.588268896142477 -1.5707805792437952 2.1412513256073 0.0 0.0 0.0 -0.0 0.0 0.0 1 False False

12597.232 3.7120532989501953 -0.8254617017558594 0.8429434935199183 -1.5882731876769007 -1.5707605520831507 2.141329288482666 0.0 0.0 0.0 -0.0 0.0 0.0 1 False False

12597.282 3.7120907306671143 -0.8254823845675965 0.842931095753805 -1.5882851086058558 -1.5707967917071741 2.1413049697875977 0.0 0.0 0.0 -0.0 0.0 0.0 1 False False

12597.332 3.712106943130493 -0.825466052894928 0.8429845015155237 -1.5882650814452113 -1.5707891623126429 2.14123797416687 0.0 0.0 0.0 -0.0 0.0 0.0 1 False False

12597.382 3.712127923965454 -0.8255202931216736 0.8429673353778284 -1.588273664514059 -1.5707767645465296 2.1413040161132812 0.0 0.0 0.0 -0.0 0.0 0.0 1 False False

12597.431999999999 3.7121071815490723 -0.8254617017558594 0.8429563681231897 -1.5883370838561 -1.5707967917071741 2.141321897506714 0.0 0.0 0.0 -0.0 0.0 0.0 1 False False

12597.482 3.7120935916900635 -0.8254779738238831 0.8429349104510706 -1.588297506371969 -1.570813004170553 2.1413040161132812 0.0 0.0 0.0 -0.0 0.0 0.0 1 False False

12597.532 3.7120578289031982 -0.8255157035640259 0.8429563681231897 -1.5883094273009242 -1.5708087126361292 2.141263246536255 0.0 0.0 0.0 -0.0 0.0 0.0 1 False False

12597.582 3.7120742797851562 -0.8254617017558594 0.8429482618915003 -1.58836092571401 -1.570784870778219 2.141249895095825 0.0 0.0 0.0 -0.0 0.0 0.0 1 False False

12597.632 3.7120742797851562 -0.8254993718913575 0.8429964224444788 -1.5883246860899867 -1.5708377997027796 2.1413092613220215 0.0 0.0 0.0 -0.0 0.0 0.0 1 False False

12597.732 3.7120742797851562 -0.8254823845675965 0.8429473082171839 -1.588280817071432 -1.570813004170553 2.141313076019287 0.0 0.0 0.0 -0.0 0.0 0.0 1 False False

12597.782 3.7121145725250244 -0.8254779738238831 0.8429892698871058 -1.5883294544615687 -1.5708048979388636 2.1413159370422363 0.0 0.0 0.0 -0.0 0.0 0.0 1 False False

12597.832 3.712095260620117 -0.8255039614490052 0.8429721037494105 -1.588269372979635 -1.570829216633932 2.141284227371216 0.0 0.0 0.0 -0.0 0.0 0.0 1 False False

12597.882 3.712066888809204 -0.8255127829364319 0.8429721037494105 -1.588292738000387 -1.5707925001727503 2.141329526901245 0.0 0.0 0.0 -0.0 0.0 0.0 1 False False

12597.931999999999 3.7120697498321533 -0.8255365651896973 0.8429754416095179 -1.588269372979635 -1.5707891623126429 2.141284227371216 0.0 0.0 0.0 -0.0 0.0 0.0 1 False False

12597.982 3.712029218673706 -0.8255112928203125 0.8429515997516077 -1.5883013210692347 -1.570801083241598 2.141267776489258 0.0 0.0 0.0 -0.0 0.0 0.0 1 False False

12598.032 3.712106943130493 -0.8255232137492676 0.8429802099810999 -1.5883285007872523 -1.570756737385885 2.141258955001831 0.0 0.0 0.0 -0.0 0.0 0.0 1 False False

12598.082 3.712106943130493 -0.8254869741252442 0.8429854551898401 -1.5883056126036585 -1.5707843939410608 2.14127516746521 0.0 0.0 0.0 -0.0 0.0 0.0 1 False False

12598.132 3.7120368480682373 -0.8255112928203125 0.8429606596576136 -1.588297029534811 -1.5707891623126429 2.141296148300171 0.0 0.0 0.0 -0.0 0.0 0.0 1 False False

12598.181999999999 3.7120697498321533 -0.8254869741252442 0.8429892698871058 -1.5882445774474085 -1.5707805792437952 2.141254186630249 0.0 0.0 0.0 -0.0 0.0 0.0 1 False False

12598.232 3.7121026515960693 -0.8255247634700318 0.8429563681231897 -1.5882169208922328 -1.5707686583148401 2.1413159370422363 0.0 0.0 0.0 -0.0 0.0 0.0 1 False False

12598.282 3.7120981216430664 -0.8254869741252442 0.8429721037494105 -1.5882569752135218 -1.5708373228656214 2.141296148300171 0.0 0.0 0.0 -0.0 0.0 0.0 1 False False

12598.332 3.712111473083496 -0.8255320352366944 0.8429630438434046 -1.5883456669249476 -1.5707767645465296 2.141287088394165 0.0 0.0 0.0 -0.0 0.0 0.0 1 False False

12598.382 3.7120447158813477 -0.8255068820765992 0.8429630438434046 -1.5882650814452113 -1.5707925001727503 2.141254186630249 0.0 0.0 0.0 -0.0 0.0 0.0 1 False False

12598.431999999999 3.7120521068573 -0.8254993718913575 0.8429392019854944 -1.5883094273009242 -1.5707767645465296 2.1413159370422363 0.0 0.0 0.0 -0.0 0.0 0.0 1 False False

12598.482 3.7120935916900635 -0.8255202931216736 0.8430054823504847 -1.588269372979635 -1.570829216633932 2.141247034072876 0.0 0.0 0.0 -0.0 0.0 0.0 1 False False

12598.532 3.7120819091796875 -0.8254779142192383 0.8430336157428187 -1.5883251629271449 -1.5707767645465296 2.141266107559204 0.0 0.0 0.0 -0.0 0.0 0.0 1 False False

12598.582 3.7120535373687744 -0.8254423898509522 0.8430174032794397 -1.5882774792113246 -1.5707929770099085 2.141296148300171 0.0 0.0 0.0 -0.0 0.0 0.0 1 False False

12598.632 3.7120819091796875 -0.8255320352366944 0.8430007139789026 -1.5882731876769007 -1.5708168188678187 2.141270637512207 0.0 0.0 0.0 -0.0 0.0 0.0 1 False False

12598.681999999999 3.7120590209960938 -0.8255410355380555 0.8429845015155237 -1.5883251629271449 -1.5707324186908167 2.141284227371216 0.0 0.0 0.0 -0.0 0.0 0.0 1 False False

12598.732 3.7120907306671143 -0.8255394858172913 0.8430054823504847 -1.5883251629271449 -1.5707805792437952 2.141287088394165 0.0 0.0 0.0 -0.0 0.0 0.0 1 False False

12598.782 3.7120699882507324 -0.8254869741252442 0.8429935614215296 -1.5882727108397425 -1.5707925001727503 2.1412692070007324 0.0 0.0 0.0 -0.0 0.0 0.0 1 False False

12598.832 3.7120699882507324 -0.8254993718913575 0.8429563681231897 -1.5883046589293421 -1.5708449522601526 2.1413040161132812 0.0 0.0 0.0 -0.0 0.0 0.0 1 False False

12598.882 3.712066650390625 -0.8254706424525757 0.8429473082171839 -1.5882650814452113 -1.570784870778219 2.141279697418213 0.0 0.0 0.0 -0.0 0.0 0.0 1 False False

12598.931999999999 3.7120742797851562 -0.8255083721927186 0.8429697195636194 -1.5882817707457484 -1.5708048979388636 2.141258955001831 0.0 0.0 0.0 -0.0 0.0 0.0 1 False False

12598.982 3.7120742797851562 -0.8255647581866761 0.8429673353778284 -1.588320871392721 -1.570784870778219 2.141291618347168 0.0 0.0 0.0 -0.0 0.0 0.0 1 False False

12599.032 3.7120773792266846 -0.8255024713328858 0.8429349104510706 -1.5882932148375453 -1.5708044211017054 2.1412723064422607 0.0 0.0 0.0 -0.0 0.0 0.0 1 False False

12599.082 3.712085008621216 -0.8255068224719544 0.8429935614215296 -1.588320871392721 -1.570801083241598 2.141266107559204 0.0 0.0 0.0 -0.0 0.0 0.0 1 False False

12599.132 3.7120654582977295 -0.8254823845675965 0.8429678122149866 -1.5883294544615687 -1.5707767645465296 2.141296148300171 0.0 0.0 0.0 -0.0 0.0 0.0 1 False False

12599.232 3.7121024131774902 -0.8255232137492676 0.8430054823504847 -1.5882774792113246 -1.570772949849264 2.1412723064422607 0.0 0.0 0.0 -0.0 0.0 0.0 1 False False

12599.282 3.712094783782959 -0.8254823845675965 0.8429845015155237 -1.5883013210692347 -1.5707529226886194 2.141291618347168 0.0 0.0 0.0 -0.0 0.0 0.0 1 False False

12599.332 3.7120742797851562 -0.8253917855075379 0.8430054823504847 -1.5883094273009242 -1.5708211104022425 2.141362190246582 0.0 0.0 0.0 -0.0 0.0 0.0 1 False False

12599.382 3.712066650390625 -0.8254779738238831 0.8429306189166468 -1.5883094273009242 -1.5708211104022425 2.141324996948242 0.0 0.0 0.0 -0.0 0.0 0.0 1 False False

12599.431999999999 3.7120449542999268 -0.8254707020572205 0.8429845015155237 -1.5882889233031214 -1.5707767645465296 2.141313076019287 0.0 0.0 0.0 -0.0 0.0 0.0 1 False False

12599.482 3.7121317386627197 -0.8254779738238831 0.8429721037494105 -1.5883251629271449 -1.5707443396197718 2.141350269317627 0.0 0.0 0.0 -0.0 0.0 0.0 1 False False

12599.532 3.712094783782959 -0.8254823845675965 0.8429845015155237 -1.5883013210692347 -1.570829216633932 2.141254186630249 0.0 0.0 0.0 -0.0 0.0 0.0 1 False False

12599.582 3.7120416164398193 -0.8255366843989869 0.8430007139789026 -1.5883251629271449 -1.5707925001727503 2.141282558441162 0.0 0.0 0.0 -0.0 0.0 0.0 1 False False

12599.632 3.7120819091796875 -0.8255439561656495 0.8429887930499476 -1.5883251629271449 -1.5708449522601526 2.141254186630249 0.0 0.0 0.0 -0.0 0.0 0.0 1 False False

12599.681999999999 3.712094783782959 -0.8255188030055542 0.8430050055133265 -1.5883370838561 -1.5707805792437952 2.141266107559204 0.0 0.0 0.0 -0.0 0.0 0.0 1 False False

12599.732 3.7120494842529297 -0.8255232137492676 0.8429887930499476 -1.5882650814452113 -1.570857350026266 2.141291618347168 0.0 0.0 0.0 -0.0 0.0 0.0 1 False False

12599.782 3.7120862007141113 -0.8254659932902833 0.8429721037494105 -1.5882607899107875 -1.570784870778219 2.141287088394165 0.0 0.0 0.0 -0.0 0.0 0.0 1 False False

12599.832 3.712062358856201 -0.8254993718913575 0.8430050055133265 -1.5882650814452113 -1.5708368460284632 2.1413471698760986 0.0 0.0 0.0 -0.0 0.0 0.0 1 False False

12599.882 3.712094783782959 -0.8254543107799073 0.8430007139789026 -1.588252683679098 -1.5708416144000452 2.1413004398345947 0.0 0.0 0.0 -0.0 0.0 0.0 1 False False

12599.931999999999 3.712099313735962 -0.8255039614490052 0.8429434935199183 -1.5882650814452113 -1.5707686583148401 2.141258716583252 0.0 0.0 0.0 -0.0 0.0 0.0 1 False False

12599.982 3.7120699882507324 -0.8254496616176148 0.8429678122149866 -1.5883251629271449 -1.5707529226886194 2.141267776489258 0.0 0.0 0.0 -0.0 0.0 0.0 1 False False

12600.032 3.7120981216430664 -0.8255530160716553 0.8430007139789026 -1.5883165798582972 -1.5707486311541956 2.1412723064422607 0.0 0.0 0.0 -0.0 0.0 0.0 1 False False

12600.082 3.712056875228882 -0.8254615825465699 0.8429887930499476 -1.5883094273009242 -1.5707686583148401 2.1413040161132812 0.0 0.0 0.0 -0.0 0.0 0.0 1 False False

12600.132 3.7120168209075928 -0.8254913252643128 0.8429845015155237 -1.588269372979635 -1.5708254019366663 2.14127516746521 0.0 0.0 0.0 -0.0 0.0 0.0 1 False False

12600.181999999999 3.7120537757873535 -0.8254750531962891 0.8429802099810999 -1.5882650814452113 -1.570784870778219 2.141221284866333 0.0 0.0 0.0 -0.0 0.0 0.0 1 False False

12600.232 3.7120327949523926 -0.8254659932902833 0.8429930845843714 -1.588320871392721 -1.5707648436175745 2.1413040161132812 0.0 0.0 0.0 -0.0 0.0 0.0 1 False False

12600.332 3.712118625640869 -0.8254905504039307 0.8430169264422815 -1.5883251629271449 -1.570813004170553 2.141334056854248 0.0 0.0 0.0 -0.0 0.0 0.0 1 False False

12600.382 3.712062358856201 -0.8254750531962891 0.8429520765887659 -1.5882817707457484 -1.570813004170553 2.141326427459717 0.0 0.0 0.0 -0.0 0.0 0.0 1 False False

12600.431999999999 3.712111473083496 -0.8254949611476441 0.8429802099810999 -1.5882846317686976 -1.5707891623126429 2.14131760597229 0.0 0.0 0.0 -0.0 0.0 0.0 1 False False

12600.482 3.712127923965454 -0.825466052894928 0.8430126349078577 -1.5882412395873011 -1.570801083241598 2.1413204669952393 0.0 0.0 0.0 -0.0 0.0 0.0 1 False False

12600.532 3.712099552154541 -0.8254869741252442 0.8429802099810999 -1.5883170566954554 -1.5707925001727503 2.141308546066284 0.0 0.0 0.0 -0.0 0.0 0.0 1 False False

12600.582 3.7121400833129883 -0.8254734438708802 0.8429849783526819 -1.5883413753905238 -1.5707805792437952 2.1413040161132812 0.0 0.0 0.0 -0.0 0.0 0.0 1 False False

12600.632 3.712106943130493 -0.8255083721927186 0.8429964224444788 -1.588280817071432 -1.5707886854754847 2.141278028488159 0.0 0.0 0.0 -0.0 0.0 0.0 1 False False

12600.681999999999 3.7120981216430664 -0.8254949611476441 0.8429930845843714 -1.588297029534811 -1.5708168188678187 2.141261577606201 0.0 0.0 0.0 -0.0 0.0 0.0 1 False False

12600.732 3.712123394012451 -0.8254980009845276 0.8430212179767054 -1.5883175335326136 -1.5708087126361292 2.141266107559204 0.0 0.0 0.0 -0.0 0.0 0.0 1 False False

12600.782 3.7120816707611084 -0.825524703865387 0.8430092970477503 -1.5882846317686976 -1.5708006064044397 2.1413087844848633 0.0 0.0 0.0 -0.0 0.0 0.0 1 False False

12600.832 3.7120773792266846 -0.8255247634700318 0.8429845015155237 -1.588313718835348 -1.5708006064044397 2.141258716583252 0.0 0.0 0.0 -0.0 0.0 0.0 1 False False

12600.882 3.7120981216430664 -0.8254993718913575 0.8429353872882288 -1.588280817071432 -1.5708125273333948 2.141313076019287 0.0 0.0 0.0 -0.0 0.0 0.0 1 False False

12600.931999999999 3.7120413780212402 -0.8255039614490052 0.8429678122149866 -1.5882889233031214 -1.570784870778219 2.141296148300171 0.0 0.0 0.0 -0.0 0.0 0.0 1 False False

12600.982 3.7120907306671143 -0.8254823845675965 0.8430050055133265 -1.5882612667479457 -1.5708168188678187 2.141308546066284 0.0 0.0 0.0 -0.0 0.0 0.0 1 False False

12601.032 3.712087631225586 -0.825487033729889 0.8430040518390101 -1.588273664514059 -1.570784870778219 2.141329526901245 0.0 0.0 0.0 -0.0 0.0 0.0 1 False False

12601.082 3.7121026515960693 -0.825466052894928 0.8429234663592737 -1.588245531121725 -1.5707491079913538 2.141296148300171 0.0 0.0 0.0 -0.0 0.0 0.0 1 False False

12601.132 3.7121026515960693 -0.8254993122867127 0.8429630438434046 -1.588280817071432 -1.5707691351519983 2.141267776489258 0.0 0.0 0.0 -0.0 0.0 0.0 1 False False

12601.181999999999 3.7120444774627686 -0.8254869741252442 0.8429721037494105 -1.5882607899107875 -1.5707767645465296 2.1412997245788574 0.0 0.0 0.0 -0.0 0.0 0.0 1 False False

12601.232 3.7120890617370605 -0.8254615825465699 0.8429845015155237 -1.5882817707457484 -1.570784870778219 2.141329526901245 0.0 0.0 0.0 -0.0 0.0 0.0 1 False False

12601.282 3.712017059326172 -0.8254615825465699 0.8429392019854944 -1.5882607899107875 -1.5708206335650843 2.141266107559204 0.0 0.0 0.0 -0.0 0.0 0.0 1 False False

12601.332 3.7121071815490723 -0.825437919502594 0.8430054823504847 -1.588292738000387 -1.5707886854754847 2.141270637512207 0.0 0.0 0.0 -0.0 0.0 0.0 1 False False

12601.382 3.712078809738159 -0.8254750531962891 0.8429678122149866 -1.5882374248900355 -1.5707324186908167 2.141284227371216 0.0 0.0 0.0 -0.0 0.0 0.0 1 False False

12601.431999999999 3.7120697498321533 -0.8254823845675965 0.8429892698871058 -1.5883013210692347 -1.5707967917071741 2.141261577606201 0.0 0.0 0.0 -0.0 0.0 0.0 1 False False

12601.482 3.712083339691162 -0.8255039614490052 0.8429678122149866 -1.588308950463766 -1.5707967917071741 2.141284227371216 0.0 0.0 0.0 -0.0 0.0 0.0 1 False False

12601.532 3.712095260620117 -0.8254408997348328 0.8430336157428187 -1.5883127651610316 -1.5708406607257288 2.141258955001831 0.0 0.0 0.0 -0.0 0.0 0.0 1 False False

12601.582 3.7120532989501953 -0.8255232733539124 0.8429935614215296 -1.588292738000387 -1.5708087126361292 2.141270637512207 0.0 0.0 0.0 -0.0 0.0 0.0 1 False False

12601.632 3.7120907306671143 -0.8254379791072388 0.8430126349078577 -1.588320871392721 -1.5708048979388636 2.1413004398345947 0.0 0.0 0.0 -0.0 0.0 0.0 1 False False

12601.732 3.7120907306671143 -0.8255157035640259 0.8429935614215296 -1.5882851086058558 -1.5708006064044397 2.141270637512207 0.0 0.0 0.0 -0.0 0.0 0.0 1 False False

12601.782 3.7121026515960693 -0.8254949611476441 0.8429721037494105 -1.5883246860899867 -1.570784870778219 2.141296148300171 0.0 0.0 0.0 -0.0 0.0 0.0 1 False False

12601.832 3.712045669555664 -0.8255290550044556 0.8429845015155237 -1.5882851086058558 -1.5708168188678187 2.141313076019287 0.0 0.0 0.0 -0.0 0.0 0.0 1 False False

12601.882 3.7120890617370605 -0.8255127829364319 0.842966381703512 -1.5882531605162562 -1.5708125273333948 2.14131760597229 0.0 0.0 0.0 -0.0 0.0 0.0 1 False False

12601.931999999999 3.712106943130493 -0.8254497212222596 0.8429802099810999 -1.5882531605162562 -1.570784870778219 2.141329526901245 0.0 0.0 0.0 -0.0 0.0 0.0 1 False False

12601.982 3.7121191024780273 -0.8255157035640259 0.8429892698871058 -1.5883008442320765 -1.5708125273333948 2.141282558441162 0.0 0.0 0.0 -0.0 0.0 0.0 1 False False

12602.032 3.712095260620117 -0.825466052894928 0.8429721037494105 -1.5882650814452113 -1.570772949849264 2.141263246536255 0.0 0.0 0.0 -0.0 0.0 0.0 1 False False

12602.082 3.7120578289031982 -0.8255083721927186 0.8429673353778284 -1.5883051357665003 -1.570784870778219 2.141308546066284 0.0 0.0 0.0 -0.0 0.0 0.0 1 False False

12602.132 3.712127923965454 -0.8254869741252442 0.8429673353778284 -1.5882846317686976 -1.5708449522601526 2.14131760597229 0.0 0.0 0.0 -0.0 0.0 0.0 1 False False

12602.181999999999 3.7121026515960693 -0.8254706424525757 0.8429935614215296 -1.5882536373534144 -1.5707886854754847 2.141247034072876 0.0 0.0 0.0 -0.0 0.0 0.0 1 False False

12602.232 3.712099552154541 -0.8255039614490052 0.8430126349078577 -1.5882731876769007 -1.5707805792437952 2.141263246536255 0.0 0.0 0.0 -0.0 0.0 0.0 1 False False

12602.282 3.7120697498321533 -0.8254950207522889 0.8429845015155237 -1.588297029534811 -1.570824925099508 2.141266107559204 0.0 0.0 0.0 -0.0 0.0 0.0 1 False False

12602.332 3.7120203971862793 -0.8254913252643128 0.8429978529559534 -1.588320871392721 -1.5707772413836878 2.1412453651428223 0.0 0.0 0.0 -0.0 0.0 0.0 1 False False

12602.382 3.7120816707611084 -0.8255127233317872 0.8430026213275355 -1.5882650814452113 -1.5708044211017054 2.141270637512207 0.0 0.0 0.0 -0.0 0.0 0.0 1 False False

12602.431999999999 3.7120862007141113 -0.8254380387118836 0.842966381703512 -1.5883251629271449 -1.570813004170553 2.141266107559204 0.0 0.0 0.0 -0.0 0.0 0.0 1 False False

12602.482 3.712108612060547 -0.8254468005946656 0.8429673353778284 -1.5882569752135218 -1.5707967917071741 2.1413004398345947 0.0 0.0 0.0 -0.0 0.0 0.0 1 False False

12602.532 3.7120444774627686 -0.8255320352366944 0.8429721037494105 -1.5882650814452113 -1.570813004170553 2.141258955001831 0.0 0.0 0.0 -0.0 0.0 0.0 1 False False

12602.582 3.7120203971862793 -0.8254749935916443 0.8429721037494105 -1.588320871392721 -1.5708044211017054 2.141279697418213 0.0 0.0 0.0 -0.0 0.0 0.0 1 False False

12602.632 3.7120816707611084 -0.8254617017558594 0.8430054823504847 -1.5883056126036585 -1.5707967917071741 2.141279697418213 0.0 0.0 0.0 -0.0 0.0 0.0 1 False False

12602.681999999999 3.712111473083496 -0.8254824441722413 0.8429845015155237 -1.5883251629271449 -1.5707686583148401 2.14127516746521 0.0 0.0 0.0 -0.0 0.0 0.0 1 False False

12602.732 3.7121188640594482 -0.8254498404315491 0.8429845015155237 -1.5882889233031214 -1.570813004170553 2.141235113143921 0.0 0.0 0.0 -0.0 0.0 0.0 1 False False

12602.832 3.7121188640594482 -0.8254950207522889 0.8429802099810999 -1.5883056126036585 -1.5708254019366663 2.1412951946258545 0.0 0.0 0.0 -0.0 0.0 0.0 1 False False

12602.882 3.71207857131958 -0.8254498404315491 0.8429630438434046 -1.5883013210692347 -1.5708006064044397 2.1413004398345947 0.0 0.0 0.0 -0.0 0.0 0.0 1 False False

12602.931999999999 3.7121188640594482 -0.8254736822894593 0.8429845015155237 -1.5882774792113246 -1.5707686583148401 2.141247034072876 0.0 0.0 0.0 -0.0 0.0 0.0 1 False False

12602.982 3.7120580673217773 -0.8254957360080262 0.8429935614215296 -1.588285585443014 -1.5707886854754847 2.1413040161132812 0.0 0.0 0.0 -0.0 0.0 0.0 1 False False

12603.032 3.7120862007141113 -0.8255157035640259 0.8430007139789026 -1.588269372979635 -1.570784870778219 2.1413049697875977 0.0 0.0 0.0 -0.0 0.0 0.0 1 False False

12603.082 3.7120654582977295 -0.8254823845675965 0.8429396788226526 -1.5882889233031214 -1.5707843939410608 2.141279697418213 0.0 0.0 0.0 -0.0 0.0 0.0 1 False False

12603.132 3.712095022201538 -0.8255395454219361 0.8429845015155237 -1.5882774792113246 -1.570801083241598 2.141254186630249 0.0 0.0 0.0 -0.0 0.0 0.0 1 False False

12603.181999999999 3.7120654582977295 -0.8255156439593812 0.8429721037494105 -1.588313718835348 -1.570801083241598 2.141267776489258 0.0 0.0 0.0 -0.0 0.0 0.0 1 False False

12603.232 3.7120938301086426 -0.8254824441722413 0.8430288473712366 -1.5883013210692347 -1.5708091894732874 2.1413114070892334 0.0 0.0 0.0 -0.0 0.0 0.0 1 False False

12603.282 3.7121024131774902 -0.8254617613605042 0.8429845015155237 -1.5883013210692347 -1.5707925001727503 2.1412513256073 0.0 0.0 0.0 -0.0 0.0 0.0 1 False False

12603.332 3.712090492248535 -0.8254780930331727 0.8429520765887659 -1.588269372979635 -1.570784870778219 2.141258716583252 0.0 0.0 0.0 -0.0 0.0 0.0 1 False False

12603.382 3.7120773792266846 -0.8255232137492676 0.8429678122149866 -1.5883013210692347 -1.5707805792437952 2.14131760597229 0.0 0.0 0.0 -0.0 0.0 0.0 1 False False

12603.431999999999 3.7121310234069824 -0.8254823845675965 0.8429306189166468 -1.588320871392721 -1.5708168188678187 2.141313076019287 0.0 0.0 0.0 -0.0 0.0 0.0 1 False False

12603.482 3.7120981216430664 -0.8254173559001465 0.8429978529559534 -1.5882731876769007 -1.5708087126361292 2.141254186630249 0.0 0.0 0.0 -0.0 0.0 0.0 1 False False

12603.532 3.7120742797851562 -0.8254823845675965 0.8429520765887659 -1.5883733234801234 -1.5707886854754847 2.1413204669952393 0.0 0.0 0.0 -0.0 0.0 0.0 1 False False

12603.582 3.712118625640869 -0.8255721491626282 0.8430007139789026 -1.588269372979635 -1.5708168188678187 2.141249656677246 0.0 0.0 0.0 -0.0 0.0 0.0 1 False False

12603.632 3.7120862007141113 -0.8254455488971253 0.8429763952838343 -1.588320871392721 -1.5707967917071741 2.141226053237915 0.0 0.0 0.0 -0.0 0.0 0.0 1 False False

12603.681999999999 3.7120449542999268 -0.8255156439593812 0.8430007139789026 -1.588341852227682 -1.5708449522601526 2.14131760597229 0.0 0.0 0.0 -0.0 0.0 0.0 1 False False

12603.732 3.712062358856201 -0.8254544299891968 0.8429635206805628 -1.5882731876769007 -1.5707805792437952 2.14127516746521 0.0 0.0 0.0 -0.0 0.0 0.0 1 False False

12603.782 3.7120862007141113 -0.8254956764033814 0.8429845015155237 -1.5883332691588343 -1.570801083241598 2.141242504119873 0.0 0.0 0.0 -0.0 0.0 0.0 1 False False

12603.832 3.7120699882507324 -0.8255614203265687 0.8429396788226526 -1.5882932148375453 -1.5708211104022425 2.14121413230896 0.0 0.0 0.0 -0.0 0.0 0.0 1 False False

12603.882 3.712106704711914 -0.8254587215236207 0.8429649511920374 -1.588229318658346 -1.5707767645465296 2.141249656677246 0.0 0.0 0.0 -0.0 0.0 0.0 1 False False

12603.931999999999 3.7120370864868164 -0.8254738014987488 0.8429845015155237 -1.588269372979635 -1.5707686583148401 2.141345739364624 0.0 0.0 0.0 -0.0 0.0 0.0 1 False False

12604.032 3.7120254039764404 -0.8254336279681702 0.8429973761187952 -1.5883056126036585 -1.5708416144000452 2.1413040161132812 0.0 0.0 0.0 -0.0 0.0 0.0 1 False False

12604.082 3.7120580673217773 -0.8254993718913575 0.8430007139789026 -1.5883013210692347 -1.570756737385885 2.1413004398345947 0.0 0.0 0.0 -0.0 0.0 0.0 1 False False

12604.132 3.7120580673217773 -0.8255112928203125 0.8429678122149866 -1.5882569752135218 -1.5707805792437952 2.141313076019287 0.0 0.0 0.0 -0.0 0.0 0.0 1 False False

12604.181999999999 3.712106704711914 -0.8254794043353577 0.8430050055133265 -1.588269372979635 -1.5708048979388636 2.141266107559204 0.0 0.0 0.0 -0.0 0.0 0.0 1 False False

12604.232 3.7121024131774902 -0.8254869741252442 0.8429845015155237 -1.5882569752135218 -1.5708335081683558 2.141296148300171 0.0 0.0 0.0 -0.0 0.0 0.0 1 False False

12604.282 3.712082862854004 -0.8254738014987488 0.8429759184466761 -1.588320871392721 -1.5707967917071741 2.141287088394165 0.0 0.0 0.0 -0.0 0.0 0.0 1 False False

12604.332 3.712106704711914 -0.8254694503596802 0.8429678122149866 -1.588297029534811 -1.5707605520831507 2.141270637512207 0.0 0.0 0.0 -0.0 0.0 0.0 1 False False

12604.382 3.7120416164398193 -0.8254780930331727 0.8429721037494105 -1.588269372979635 -1.5707805792437952 2.141291618347168 0.0 0.0 0.0 -0.0 0.0 0.0 1 False False

12604.431999999999 3.7120296955108643 -0.8254575890353699 0.8429887930499476 -1.588245531121725 -1.5708611647235315 2.141242504119873 0.0 0.0 0.0 -0.0 0.0 0.0 1 False False

12604.482 3.7120370864868164 -0.8254955571940918 0.8429721037494105 -1.5882569752135218 -1.570772949849264 2.141313076019287 0.0 0.0 0.0 -0.0 0.0 0.0 1 False False

12604.532 3.712094783782959 -0.8255244058421631 0.8429635206805628 -1.588297029534811 -1.5708335081683558 2.14131760597229 0.0 0.0 0.0 -0.0 0.0 0.0 1 False False

12604.582 3.7120819091796875 -0.8255364459804078 0.8430169264422815 -1.5882288418211878 -1.5708087126361292 2.141313076019287 0.0 0.0 0.0 -0.0 0.0 0.0 1 False False

12604.632 3.712106704711914 -0.8254869741252442 0.8430050055133265 -1.5883332691588343 -1.5707805792437952 2.141329526901245 0.0 0.0 0.0 -0.0 0.0 0.0 1 False False

12604.681999999999 3.7120819091796875 -0.8255125445178528 0.8429887930499476 -1.588280817071432 -1.5707886854754847 2.141254186630249 0.0 0.0 0.0 -0.0 0.0 0.0 1 False False

12604.732 3.7121026515960693 -0.8254544299891968 0.8429649511920374 -1.5883294544615687 -1.5707891623126429 2.141226053237915 0.0 0.0 0.0 -0.0 0.0 0.0 1 False False

12604.782 3.7121145725250244 -0.8254575890353699 0.8430259863482874 -1.5883165798582972 -1.570784870778219 2.141221523284912 0.0 0.0 0.0 -0.0 0.0 0.0 1 False False

12604.832 3.7120816707611084 -0.8255449694446106 0.8430054823504847 -1.5883094273009242 -1.5707686583148401 2.1412930488586426 0.0 0.0 0.0 -0.0 0.0 0.0 1 False False

12604.882 3.712144613265991 -0.8255113524249573 0.8429887930499476 -1.588269372979635 -1.5707967917071741 2.1413397789001465 0.0 0.0 0.0 -0.0 0.0 0.0 1 False False

12604.931999999999 3.7121355533599854 -0.825482503776886 0.8429515997516077 -1.588280817071432 -1.5707967917071741 2.141230583190918 0.0 0.0 0.0 -0.0 0.0 0.0 1 False False

12604.982 3.7120862007141113 -0.8254544299891968 0.8429978529559534 -1.5882650814452113 -1.5707891623126429 2.141279697418213 0.0 0.0 0.0 -0.0 0.0 0.0 1 False False

12605.032 3.7120935916900635 -0.825491265659668 0.8430054823504847 -1.5883175335326136 -1.5707767645465296 2.141258955001831 0.0 0.0 0.0 -0.0 0.0 0.0 1 False False

12605.082 3.7120742797851562 -0.8254499000361939 0.8429802099810999 -1.5883094273009242 -1.570801083241598 2.141296148300171 0.0 0.0 0.0 -0.0 0.0 0.0 1 False False

12605.132 3.7120981216430664 -0.825540618305542 0.8429721037494105 -1.588269372979635 -1.5707605520831507 2.141313076019287 0.0 0.0 0.0 -0.0 0.0 0.0 1 False False

12605.181999999999 3.7121100425720215 -0.8254738014987488 0.8430054823504847 -1.5882488689818324 -1.5707605520831507 2.141254186630249 0.0 0.0 0.0 -0.0 0.0 0.0 1 False False

12605.232 3.7120697498321533 -0.8255201143077393 0.8430021444903772 -1.588269372979635 -1.570784870778219 2.14131760597229 0.0 0.0 0.0 -0.0 0.0 0.0 1 False False

12605.282 3.712099552154541 -0.8255363267711182 0.8429892698871058 -1.5882727108397425 -1.5708087126361292 2.141263246536255 0.0 0.0 0.0 -0.0 0.0 0.0 1 False False

12605.332 3.712083339691162 -0.8255318564227601 0.8429630438434046 -1.588297029534811 -1.5707967917071741 2.141279697418213 0.0 0.0 0.0 -0.0 0.0 0.0 1 False False

12605.431999999999 3.7120862007141113 -0.8254869741252442 0.8429935614215296 -1.588269372979635 -1.5707972685443323 2.141261577606201 0.0 0.0 0.0 -0.0 0.0 0.0 1 False False

12605.482 3.712111473083496 -0.8254869741252442 0.8430145422564905 -1.588320871392721 -1.5708254019366663 2.141308546066284 0.0 0.0 0.0 -0.0 0.0 0.0 1 False False

12605.532 3.7120532989501953 -0.8255611223033448 0.8429587523089808 -1.5883094273009242 -1.5707724730121058 2.141254186630249 0.0 0.0 0.0 -0.0 0.0 0.0 1 False False

12605.582 3.712062358856201 -0.8255286377719422 0.8430097738849085 -1.5883051357665003 -1.5708087126361292 2.141313076019287 0.0 0.0 0.0 -0.0 0.0 0.0 1 False False

12605.632 3.7120606899261475 -0.8254661721042176 0.8429763952838343 -1.5883008442320765 -1.5707686583148401 2.141313076019287 0.0 0.0 0.0 -0.0 0.0 0.0 1 False False

12605.681999999999 3.7121100425720215 -0.8255556982806702 0.8430007139789026 -1.588273664514059 -1.5708254019366663 2.141287088394165 0.0 0.0 0.0 -0.0 0.0 0.0 1 False False

12605.732 3.7120742797851562 -0.8254739207080384 0.8430007139789026 -1.5882774792113246 -1.5707805792437952 2.141300678253174 0.0 0.0 0.0 -0.0 0.0 0.0 1 False False

12605.782 3.712095260620117 -0.8254782122424622 0.8429935614215296 -1.5883051357665003 -1.570784870778219 2.14127516746521 0.0 0.0 0.0 -0.0 0.0 0.0 1 False False

12605.832 3.712062358856201 -0.8255112928203125 0.8430007139789026 -1.588285585443014 -1.5708168188678187 2.1412951946258545 0.0 0.0 0.0 -0.0 0.0 0.0 1 False False

12605.882 3.712066888809204 -0.8254739207080384 0.8429978529559534 -1.5882894001402796 -1.570813004170553 2.141291618347168 0.0 0.0 0.0 -0.0 0.0 0.0 1 False False

12605.931999999999 3.7120742797851562 -0.8254739207080384 0.8430503050433558 -1.5883051357665003 -1.570813004170553 2.141279697418213 0.0 0.0 0.0 -0.0 0.0 0.0 1 False False

12605.982 3.7120742797851562 -0.8254955571940918 0.8429978529559534 -1.5882493458189906 -1.5707686583148401 2.141287088394165 0.0 0.0 0.0 -0.0 0.0 0.0 1 False False

12606.032 3.7120249271392822 -0.8254907888225098 0.8429425398456019 -1.5883094273009242 -1.5707686583148401 2.141270637512207 0.0 0.0 0.0 -0.0 0.0 0.0 1 False False

12606.082 3.7120578289031982 -0.8255038422397156 0.8430083433734339 -1.588292738000387 -1.5707686583148401 2.141338348388672 0.0 0.0 0.0 -0.0 0.0 0.0 1 False False

12606.132 3.7120578289031982 -0.8255038422397156 0.8429845015155237 -1.5882655582823695 -1.570813004170553 2.141308546066284 0.0 0.0 0.0 -0.0 0.0 0.0 1 False False

12606.181999999999 3.7120578289031982 -0.8254500788501282 0.8429515997516077 -1.588269372979635 -1.570801083241598 2.1413049697875977 0.0 0.0 0.0 -0.0 0.0 0.0 1 False False

12606.232 3.7120697498321533 -0.8254750531962891 0.8429673353778284 -1.5882655582823695 -1.570801083241598 2.1413049697875977 0.0 0.0 0.0 -0.0 0.0 0.0 1 False False

12606.282 3.7120490074157715 -0.8254414361766358 0.8429964224444788 -1.5883165798582972 -1.570801083241598 2.141254186630249 0.0 0.0 0.0 -0.0 0.0 0.0 1 False False

12606.332 3.7120907306671143 -0.8254545491984864 0.8430264631854456 -1.5883165798582972 -1.570801083241598 2.141216993331909 0.0 0.0 0.0 -0.0 0.0 0.0 1 False False

12606.382 3.7120535373687744 -0.8254782122424622 0.8430216948138636 -1.5883165798582972 -1.570801083241598 2.141345977783203 0.0 0.0 0.0 -0.0 0.0 0.0 1 False False

12606.431999999999 3.7120249271392822 -0.8255449694446106 0.8429673353778284 -1.5882774792113246 -1.5707925001727503 2.141263246536255 0.0 0.0 0.0 -0.0 0.0 0.0 1 False False

12606.532 3.712095260620117 -0.8254869741252442 0.8429845015155237 -1.5882612667479457 -1.5708335081683558 2.14121413230896 0.0 0.0 0.0 -0.0 0.0 0.0 1 False False

12606.582 3.7120981216430664 -0.8255232137492676 0.8429845015155237 -1.588297029534811 -1.5707724730121058 2.14131760597229 0.0 0.0 0.0 -0.0 0.0 0.0 1 False False

12606.632 3.712116003036499 -0.8255155843547364 0.8429721037494105 -1.5882817707457484 -1.5707686583148401 2.141284227371216 0.0 0.0 0.0 -0.0 0.0 0.0 1 False False

12606.681999999999 3.7120444774627686 -0.8254457277110596 0.8429306189166468 -1.5883094273009242 -1.570784870778219 2.141270637512207 0.0 0.0 0.0 -0.0 0.0 0.0 1 False False

12606.732 3.7120535373687744 -0.825437144642212 0.8429845015155237 -1.5883013210692347 -1.5707605520831507 2.14127516746521 0.0 0.0 0.0 -0.0 0.0 0.0 1 False False

12606.782 3.7120742797851562 -0.8255081337741395 0.8429473082171839 -1.5883013210692347 -1.570784870778219 2.141329526901245 0.0 0.0 0.0 -0.0 0.0 0.0 1 False False

12606.832 3.7120862007141113 -0.8254907888225098 0.8429802099810999 -1.5883127651610316 -1.5707886854754847 2.1413094997406006 0.0 0.0 0.0 -0.0 0.0 0.0 1 True False

12606.882 3.712139844894409 -0.825482503776886 0.8429563681231897 -1.5882846317686976 -1.5708168188678187 2.141267776489258 0.0 0.0 0.0 -0.0 0.0 0.0 1 True False

12606.931999999999 3.712087631225586 -0.8255038422397156 0.8429678122149866 -1.5883251629271449 -1.5707805792437952 2.141284227371216 0.0 0.0 0.0 -0.0 0.0 0.0 1 True False

12606.982 3.712078809738159 -0.8255232137492676 0.8429563681231897 -1.5882412395873011 -1.570801083241598 2.141291618347168 0.0 0.0 0.0 -0.0 0.0 0.0 1 True False

12607.032 3.7120907306671143 -0.8255362075618287 0.8429964224444788 -1.5883332691588343 -1.5707648436175745 2.1413114070892334 0.0 0.0 0.0 -0.0 0.0 0.0 1 True False

12607.082 3.712045669555664 -0.8254707616618653 0.8429887930499476 -1.588320871392721 -1.5707767645465296 2.141296148300171 0.0 0.0 0.0 -0.0 0.0 0.0 1 True False

12607.132 3.712095022201538 -0.8254750531962891 0.8429587523089808 -1.5882207355894984 -1.5707362333880823 2.141249656677246 0.0 0.0 0.0 -0.0 0.0 0.0 1 True False

12607.181999999999 3.7120981216430664 -0.8254576486400147 0.8429759184466761 -1.5883056126036585 -1.570801083241598 2.141258955001831 0.0 0.0 0.0 -0.0 0.0 0.0 1 True False

12607.232 3.7121100425720215 -0.8255362671664734 0.8429520765887659 -1.5882412395873011 -1.5707967917071741 2.141230583190918 0.0 0.0 0.0 -0.0 0.0 0.00033485720632597804 1 True False

12607.282 3.7120935916900635 -0.825486497288086 0.8429763952838343 -1.588297506371969 -1.5707686583148401 2.141279697418213 0.0 0.0 0.0 -0.0 0.0 -0.0004878150357399136 1 True False

12607.332 3.7120935916900635 -0.8255448502353211 0.8429606596576136 -1.5882650814452113 -1.5707929770099085 2.141296148300171 0.0 0.0 0.0 -0.0 3.2097386970519892e-09 5.574124773137946e-15 1 True False

12607.382 3.712106943130493 -0.8255362671664734 0.8429887930499476 -1.5882817707457484 -1.5707886854754847 2.141300678253174 0.0 0.0 0.0 -0.0 4.665391315938905e-05 3.792116331169382e-05 1 True False

12607.431999999999 3.7122421264648438 -0.8255617779544373 0.8431413809405726 -1.588393350640768 -1.5707967917071741 2.141448974609375 0.029760731384158134 -0.016616715118288994 0.024896904826164246 -0.006107003428041935 1.9067232567956862e-15 0.02192693203687668 1 True False

12607.482 3.7149453163146973 -0.8272655767253418 0.8455722967730921 -1.589135309258932 -1.570836369191305 2.144216299057007 0.08716296404600143 -0.05426299571990967 0.08669303357601166 -0.02931862138211727 2.8963159134366407e-34 0.09448674321174622 1 True False

12607.532 3.721344470977783 -0.8312773269465943 0.8518570105182093 -1.5911528072752894 -1.570784870778219 2.150580406188965 0.1668725311756134 -0.10292315483093262 0.15499165654182434 -0.05513084679841995 8.101717685349286e-05 0.1605137139558792 1 True False

12607.582 3.731224536895752 -0.8378164333156128 0.861309830342428 -1.5942665539183558 -1.570784870778219 2.1604740619659424 0.22772634029388428 -0.15253302454948425 0.22102023661136627 -0.06670619547367096 0.00020721222972497344 0.22809264063835144 1 True False

12607.632 3.744675874710083 -0.8465204399875184 0.8741143385516565 -1.59828581432485 -1.5708296934710901 2.173640251159668 0.2979467511177063 -0.19432324171066284 0.2875446677207947 -0.09725126624107361 0.00010574521729722619 0.2999832034111023 1 True False

12607.681999999999 3.761251926422119 -0.8574289244464417 0.8901856581317347 -1.6035334072508753 -1.5708254019366663 2.1905593872070312 0.3694767653942108 -0.24088154733181 0.35391929745674133 -0.11095356941223145 9.465261246077716e-05 0.36471304297447205 1 True False

12607.732 3.7817108631134033 -0.8706472677043458 0.9098590056048792 -1.6096936664977015 -1.5707529226886194 2.2107553482055664 0.44093582034111023 -0.2856115996837616 0.4222187101840973 -0.13067947328090668 5.647624837408494e-13 0.4442806541919708 1 True False

12607.782 3.80536150932312 -0.8861047190478821 0.9324582258807581 -1.6172219715514125 -1.5707767645465296 2.234487295150757 0.5071181654930115 -0.3334523141384125 0.49146217107772827 -0.14672762155532837 1.8344589270744814e-22 0.5097695589065552 1 True False

12607.882 3.8634181022644043 -0.9235779804042359 0.988070313130514 -1.63529696087026 -1.5708006064044397 2.2926313877105713 0.6448938846588135 -0.4146661162376404 0.6239999532699585 -0.21012264490127563 -8.684022468133379e-13 0.6406405568122864 1 True False

12607.931999999999 3.8975768089294434 -0.9458630842021485 1.0209348837481897 -1.6459247074522914 -1.5707724730121058 2.3267998695373535 0.7167843580245972 -0.4680713713169098 0.6823074817657471 -0.22132384777069092 -4.1634502849774435e-05 0.7132955193519592 1 True False

12607.982 3.9353199005126953 -0.9702986043742676 1.0571802298175257 -1.6576224766173304 -1.5708373228656214 2.3644301891326904 0.7819671630859375 -0.5019047856330872 0.7569169402122498 -0.2497948557138443 -1.755431942612072e-17 0.7943838238716125 1 True False

12608.032 3.9764533042907715 -0.997027651672699 1.0966666380511683 -1.6703268490233363 -1.5707319418536585 2.405759334564209 0.8663801550865173 -0.5531504154205322 0.8240338563919067 -0.2672879695892334 -0.00011410137813072652 0.862907350063324 1 True False

12608.082 4.021351337432861 -1.0260168474963685 1.1396525541888636 -1.684279581109518 -1.5708168188678187 2.4505627155303955 0.9274452328681946 -0.6024063229560852 0.8946797847747803 -0.2796717584133148 -4.525463737081736e-05 0.9181187748908997 1 True False

12608.132 4.069525241851807 -1.0572667878917237 1.1857498327838343 -1.6993257007994593 -1.5707405249225062 2.4986941814422607 1.0012286901474 -0.6459836959838867 0.9594460725784302 -0.3081773817539215 -8.19481210783124e-05 0.9996041655540466 1 True False

12608.181999999999 4.121093273162842 -1.0906658631614228 1.235196892415182 -1.715161462823385 -1.5708287397967737 2.550074577331543 1.040170669555664 -0.6781418323516846 1.0041030645370483 -0.3072611093521118 7.755899034123104e-09 1.0451076030731201 1 True False

12608.232 4.173312187194824 -1.1246924263289948 1.2853382269488733 -1.7314650020995082 -1.5707686583148401 2.6027114391326904 1.0496180057525635 -0.6740274429321289 1.0055984258651733 -0.3346143960952759 0.00027045453316532075 1.049993634223938 1 True False

12608.282 4.225671291351318 -1.1586614412120362 1.3357227484332483 -1.7476922474303187 -1.5708048979388636 2.6548638343811035 1.0507750511169434 -0.6755174398422241 1.0159896612167358 -0.2985084354877472 2.0151372237542375e-10 1.0543344020843506 1 True False

12608.332 4.2780842781066895 -1.1926261645606537 1.3858931700335901 -1.7640296421446742 -1.5707810560809534 2.7070364952087402 1.0406792163848877 -0.6713576912879944 0.9987443685531616 -0.3241071403026581 3.060997521044066e-29 1.045685887336731 1 True False

12608.382 4.3291335105896 -1.225768433218338 1.4348505179034632 -1.779677530328268 -1.5708087126361292 2.75850772857666 0.9904134273529053 -0.6402612924575806 0.9501692056655884 -0.31479403376579285 0.0 0.9891975522041321 1 True False

12608.431999999999 4.376867771148682 -1.2567201119712372 1.4805710951434534 -1.794675966302389 -1.570801083241598 2.8060076236724854 0.9175997376441956 -0.5959464907646179 0.8830925822257996 -0.3022259771823883 -0.000138570845592767 0.9231541752815247 1 True False

12608.482 4.421102046966553 -1.285327897672989 1.5229437986956995 -1.808267732659811 -1.5708006064044397 2.850414991378784 0.8570330142974854 -0.5484974980354309 0.8248951435089111 -0.2539256513118744 -5.538868572330102e-05 0.8538211584091187 1 True False

12608.532 4.461769104003906 -1.3116649848273774 1.5618422667132776 -1.8209549389281214 -1.5707810560809534 2.891066312789917 0.7745903134346008 -0.5006825923919678 0.7540147304534912 -0.254584938287735 -5.717416807429364e-17 0.7740145921707153 1 True False

12608.582 4.499053478240967 -1.3357962381890793 1.597515885029928 -1.832498689691061 -1.5708654562579554 2.928173780441284 0.7065247893333435 -0.4626871645450592 0.6869704723358154 -0.20838800072669983 -3.866400584229268e-05 0.7119674682617188 1 True False

12608.632 4.5327959060668945 -1.3578211975148697 1.629751984273092 -1.8432494602599085 -1.5707648436175745 2.961808919906616 0.6424514651298523 -0.4168490171432495 0.6125355362892151 -0.19721609354019165 -1.283527988089984e-18 0.6541444659233093 1 True False

12608.681999999999 4.563087463378906 -1.3772668701461335 1.6588686148272913 -1.852377553979391 -1.570784870778219 2.992098569869995 0.5710014700889587 -0.370947003364563 0.551970899105072 -0.17131894826889038 1.3168033490321661e-14 0.5789510011672974 1 True False

12608.732 4.5898003578186035 -1.39461504042659 1.6846054236041468 -1.860622068444723 -1.570784870778219 3.0185940265655518 0.5024827718734741 -0.3242403268814087 0.48272213339805603 -0.1600700169801712 2.0002270648309585e-33 0.5018572807312012 1 True False

12608.782 4.612885475158691 -1.409818024640419 1.7068498770343226 -1.8678928814330042 -1.5707925001727503 3.042285442352295 0.43572998046875 -0.2750258147716522 0.41836410760879517 -0.13576973974704742 0.0 0.4263843894004822 1 True False

12608.832 4.632610321044922 -1.4225657743266602 1.7256391684161585 -1.8740583858885707 -1.570813004170553 3.062028646469116 0.36223915219306946 -0.2365313172340393 0.34584513306617737 -0.11310384422540665 -5.852708023065851e-20 0.36024218797683716 1 True False

12608.882 4.649129867553711 -1.43316903830085 1.7413743177997034 -1.8791471920409144 -1.5708168188678187 3.0781891345977783 0.28604087233543396 -0.19367577135562897 0.2773102819919586 -0.09259418398141861 1.1028191693185363e-08 0.295061856508255 1 True False

12608.931999999999 4.661805629730225 -1.4414519679597397 1.7535999456988733 -1.8831054172911585 -1.5707767645465296 3.091047525405884 0.21965095400810242 -0.14425861835479736 0.21595914661884308 -0.06808082014322281 1.6751846508357063e-27 0.2199265956878662 1 True False

12608.982 4.6711602210998535 -1.4474888828447838 1.762583080922262 -1.885972639123434 -1.5707405249225062 3.1004223823547363 0.15335893630981445 -0.09763245284557343 0.14691613614559174 -0.0414830707013607 0.0 0.15242817997932434 1 True False

12609.032 4.676891803741455 -1.451208197777607 1.7680628935443323 -1.8878642521300257 -1.5707891623126429 3.106142282485962 0.08218706399202347 -0.05447545275092125 0.08105295151472092 -0.028450945392251015 0.0 0.08277180045843124 1 True False

12609.082 4.679267406463623 -1.4527182814529915 1.7703817526446741 -1.8884865246214808 -1.5708091894732874 3.1084983348846436 0.012907011434435844 -0.008496774360537529 0.011499525047838688 -0.0012798375682905316 0.0 0.014521836303174496 1 True False

12609.132 4.679255485534668 -1.4523352471045037 1.7712190786944788 -1.8897773228087367 -1.570784870778219 3.108480453491211 -8.294451254187152e-05 0.017764046788215637 0.03846617043018341 -0.0520009882748127 0.0 0.00011355966853443533 1 True False

12609.181999999999 4.679258346557617 -1.450744093661644 1.774154011403219 -1.894421239892477 -1.5707925001727503 3.1084938049316406 0.00014633775572292507 0.0488060861825943 0.08196849375963211 -0.1220778077840805 0.0 0.00039721332723274827 1 True False

12609.282 4.679266452789307 -1.4431379300406952 1.7867210547076624 -1.914229532281393 -1.5707805792437952 3.1084415912628174 0.0011732038110494614 0.10498305410146713 0.1665123701095581 -0.2610386908054352 4.238258668465278e-07 0.00030459309346042573 1 True False

12609.332 4.679295063018799 -1.4373708081296463 1.7961600462542933 -1.9293447933592738 -1.5707486311541956 3.1085314750671387 0.000202668146812357 0.12450624257326126 0.2064974159002304 -0.33188849687576294 6.437925894982952e-26 0.00019244386930949986 1 True False

12609.382 4.679299354553223 -1.430492342715599 1.8077176252948206 -1.9480091534056605 -1.5708087126361292 3.108612298965454 0.00011742013884941116 0.15083067119121552 0.2556324303150177 -0.40167197585105896 9.80908925027372e-45 0.00010176144860452041 1 True False

12609.431999999999 4.679327964782715 -1.4222029906562348 1.8216622511493128 -1.970194002191061 -1.5708087126361292 3.108504295349121 0.00010007240052800626 0.17944015562534332 0.29791927337646484 -0.47242501378059387 0.0 5.7643068430479616e-05 1 True False

12609.482 4.679323196411133 -1.4125521194985886 1.837574307118551 -1.9958096943297328 -1.5708211104022425 3.1085615158081055 9.121718176174909e-05 0.20418673753738403 0.3406616747379303 -0.547957718372345 0.0 1.2590147803156256e-14 1 True False

12609.532 4.6792778968811035 -1.4018192005208512 1.85527211824526 -2.023818632165426 -1.5707648436175745 3.1084952354431152 4.953296229359694e-05 0.2005348652601242 0.3366400897502899 -0.5451087951660156 3.56735959727848e-19 1.9124461058283426e-33 1 True False

12609.582 4.679339408874512 -1.3925489795259018 1.8707616964923304 -2.049199243585104 -1.5707925001727503 3.1085541248321533 6.254258187254891e-05 0.1778773069381714 0.2968831956386566 -0.47059324383735657 5.418829008815468e-38 7.197609529734214e-16 1 True False

12609.632 4.67927360534668 -1.384293795829155 1.884637180958883 -2.0712858639159144 -1.5707925001727503 3.1085541248321533 3.960660978918895e-05 0.15220898389816284 0.24812573194503784 -0.4136998653411865 0.0 1.0933184565333044e-34 1 True False

12609.681999999999 4.679323196411133 -1.3772238951972504 1.8959234396563929 -2.089684625665182 -1.5707686583148401 3.108508825302124 2.799923903840096e-10 0.1257728785276413 0.20389163494110107 -0.33613911271095276 0.0 -8.096214514807798e-06 1 True False

12609.732 4.6793107986450195 -1.371599720125534 1.9053109327899378 -2.104490896264547 -1.5708048979388636 3.1085541248321533 0.0 0.09719061106443405 0.16967178881168365 -0.2769016921520233 0.0 -5.116972533869557e-05 1 True False

12609.782 4.679339408874512 -1.3674441289952775 1.9124568144427698 -2.116007467309469 -1.5707605520831507 3.1085493564605713 0.0 0.07559546083211899 0.12237464636564255 -0.19031894207000732 0.0 -3.743277523905778e-22 1 True False

12609.832 4.679286003112793 -1.3642625522664567 1.9176161924945276 -2.123974939385885 -1.570784870778219 3.1085495948791504 0.0 0.047285567969083786 0.07490488886833191 -0.14292728900909424 0.0 -5.68604877869081e-41 1 True False

12609.882 4.679318904876709 -1.362645835881569 1.920337978993551 -2.1283871136107386 -1.5707529226886194 3.108513116836548 0.0 0.021261023357510567 0.034868545830249786 -0.052784938365221024 0.0 -0.0 1 True False

12609.931999999999 4.679356098175049 -1.3623597633889695 1.9209473768817347 -2.129472871819967 -1.5709055105792444 3.1085331439971924 -0.00010278194531565532 -3.298277917451742e-08 0.000656401680316776 -1.409561889431643e-07 0.0 -8.640879556472657e-15 1 True False

12609.982 4.679321765899658 -1.3622735750726243 1.920905892048971 -2.129437109033102 -1.5707891623126429 3.108466863632202 0.0 0.000324140302836895 -6.430478817532509e-20 -2.1411268852484524e-26 0.0 -1.3125512983274044e-33 1 True False

12610.032 4.679368019104004 -1.3622901451638718 1.9209802786456507 -2.129432817498678 -1.5707805792437952 3.108471632003784 0.0 0.0004278631240595132 5.6199543905677274e-05 -6.550840771524236e-05 0.0 -2.91238866338972e-05 1 True False

12610.082 4.6793107986450195 -1.3622596126845856 1.920955006276266 -2.129484792748922 -1.570801083241598 3.108499765396118 0.0 0.0006051422678865492 4.7343663027277216e-05 -0.0007182469125837088 0.0 -2.0735937141580507e-05 1 True False

12610.132 4.679315090179443 -1.362229974274971 1.920971695576803 -2.1295200786986292 -1.5707648436175745 3.1085493564605713 0.0 0.0001771003007888794 7.585091225337237e-05 -0.0005075724911876023 0.0 -1.3052595026595668e-21 1 True False

12610.181999999999 4.679323196411133 -1.3622379016927262 1.920950714741842 -2.1295319996275843 -1.5708168188678187 3.1084952354431152 0.0 0.00012503562902566046 8.502453420078382e-05 -0.0002057537785731256 0.0 -1.9826971971731837e-40 1 True False

12610.232 4.679335117340088 -1.3622465592673798 1.920987908040182 -2.129523893395895 -1.5707767645465296 3.108530282974243 0.0 8.853970939526334e-05 8.142685692291707e-05 -0.00011535306111909449 0.0 -0.0 1 True False

12610.282 4.6793107986450195 -1.3622671228698273 1.920955006276266 -2.129601141015524 -1.5707805792437952 3.1084787845611572 0.0 6.27986082690768e-05 6.727766594849527e-05 -7.51935804146342e-05 0.0 -0.0 1 True False

12610.332 4.6793036460876465 -1.3622509104064484 1.9210041205035608 -2.1295529804625453 -1.5707805792437952 3.108563184738159 0.0 1.401298464324817e-45 1.9721677878351443e-22 -7.653110367655813e-10 0.0 -0.0 1 True False

12610.382 4.6793060302734375 -1.3622671228698273 1.921027962361471 -2.1295601330199183 -1.5708368460284632 3.108466863632202 0.0 -3.0124974256208485e-39 6.47299675620161e-05 -1.1625092496547427e-28 0.0 -0.0 1 True False

12610.431999999999 4.679323196411133 -1.3622268301299592 1.920971695576803 -2.1295887432494105 -1.5707648436175745 3.108466863632202 -8.187447864680838e-23 0.0 2.777758589879604e-26 -0.0 0.0 -0.0 1 True False

12610.482 4.679319858551025 -1.362262801533081 1.9209869543658655 -2.1295649013915003 -1.5708048979388636 3.108504295349121 0.0 0.0 7.673643995076418e-05 -0.0 0.0 -0.0 1 True False

12610.532 4.679339408874512 -1.3623138976148148 1.9208100477801722 -2.129692693749899 -1.5707605520831507 3.1085121631622314 -7.683275907766074e-05 0.0006985872169025242 0.0011680525494739413 -0.0016560942167416215 -0.0008215230773203075 2.416919778625015e-05 1 True False

12610.582 4.679318904876709 -1.3622932893088837 1.920868221913473 -2.129660745660299 -1.570857350026266 3.108504295349121 -6.461776501964778e-05 0.0008851043530739844 5.394788500535264e-32 -0.0002510150952730328 -1.2478954056545183e-22 3.6713054047874865e-24 1 True False

12610.681999999999 4.679306507110596 -1.3627328735641022 1.9203608671771448 -2.1277629337706507 -1.570813004170553 3.1085121631622314 0.0 -0.020390493795275688 -0.03344402089715004 0.06581366062164307 1.129526694398919e-09 0.0 1 True True

